!!!!SEGMENT: pl-wtm--r-2530_hertz-michal--bracia-pancerni.krn
!!!cenid: 18xx:3098
!!!COM: Hertz, Michał
!!!COM-rismID: pe41023359
!!!CDT: 1844/09/28-~1918
!!!CNT: Polish
!!!OTL: Bracia pancerni
!!!PDT:
!!!AGN:
!!!SMS-siglum: PL-Wtm
!!!SMS-shelfmark: R 2530
!!!SMS-shelfwork: W
!!!SMS-variant:
!!!SMS-altvar:
!!!NIFC-rismSourceID: 1001082228
!!!NIFC-rismChildID: 1001082228
!!!NIFC-islandoraID:
!!!URL-pdf-islandora:
!!!URL-scan:
!!!OMD: Moderato
!!!ONB-nifc:
!!!AIN: 2 empty 2 piano
!!!key:
**kern	**kern	**dynam	**kern	**text	**text	**dynam	**kern	**text	**text	**dynam
*part4	*part3	*part3	*part2	*part2	*part2	*part2	*part1	*part1	*part1	*part1
*staff4	*staff3	*	*staff2	*staff2	*staff2	*	*staff1	*staff1	*staff1	*
*Ipiano	*Ipiano	*	*Iempty	*	*	*	*Iempty	*	*	*
*I"Pianoforte	*I"Piano	*	*I"Bas 1&amp;2	*	*	*	*I"Ten 1&amp;2	*	*	*
*	*I'pf	*	*I'B	*	*	*	*I'T	*	*	*
*clefF4	*clefG2	*	*clefF4	*	*	*	*clefG2	*	*	*
*	*	*	*	*	*	*	*ITrd8c12	*	*	*
*k[b-e-a-d-]	*k[b-e-a-d-]	*	*k[b-e-a-d-]	*	*	*	*k[b-e-a-d-]	*	*	*
*f:	*f:	*	*f:	*	*	*	*f:	*	*	*
*M6/8	*M6/8	*	*M6/8	*	*	*	*M6/8	*	*	*
*	*	*	*	*	*	*	*	*	*	*below
!	!	!LO:DY:rj	!	!	!	!	!LO:TX:t=P:problem=partia zapisane bez przenośnika oktawowego	!	!	!
*all\right	*	*	*	*	*	*	*	*	*	*
8c\ 8C'\	8r	p	8r	.	.	.	8r	.	.	.
=1	=1	=1	=1	=1	=1	=1	=1	=1	=1	=1
*	*^	*	*	*	*	*	*	*	*	*
4A-\ 4AA-\	4r	2ryy	.	2.r	.	.	.	2.r	.	.	.
!	!	!	!LO:DY:rj	!	!	!	!	!	!	!	!
8G\ 8GG'\	8cc\ 8b-\ 8en\ 8c\	.	p	.	.	.	.	.	.	.	.
8.F\L 8.FF'\	8.a-\L 8.f\ 8.c\	.	<	.	.	.	.	.	.	.	.
.	.	8ryy	.	.	.	.	.	.	.	.	.
16E-\K 16EE-'\	16g\K 16c\	.	.	.	.	.	.	.	.	.	.
8Dn\J 8DDn'\	8cc\J 8a-\ 8f\ 8c\	8ccc/ 8aa-/ 8ff/	.	.	.	.	.	.	.	.	.
=2	=2	=2	=2	=2	=2	=2	=2	=2	=2	=2	=2
(4.E-\ (4.EE-^\	8.aa-\L 8.ff\ 8.cc\ 8.a-\	2ryy	.	2.r	.	.	.	2.r	.	.	.
.	16gg\K 16cc\ 16g\	.	[	.	.	.	.	.	.	.	.
.	8ff\J 8cc\ 8a-\ 8f\	.	.	.	.	.	.	.	.	.	.
4Dn/ 4DDn/))	(8aa-/L (8a-/	.	.	.	.	.	.	.	.	.	.
.	8gg/J 8g/))	4ff\ 4bn\	.	.	.	.	.	.	.	.	.
8r	16r	.	.	.	.	.	.	.	.	.	.
!	!	!	!LO:DY:a	!	!	!	!	!	!	!	!
.	16g/	.	mf	.	.	.	.	.	.	.	.
=3	=3	=3	=3	=3	=3	=3	=3	=3	=3	=3	=3
8r	([4.g/	8r	.	2.r	.	.	.	2.r	.	.	.
8.D-X\L 8.DD-X'\	.	8.f\L 8.B-\	p	.	.	.	.	.	.	.	.
16D-\Jk 16DD-'\	.	16f\Jk 16B-\	.	.	.	.	.	.	.	.	.
!	!LO:TX:t=P:problem=dopisane dźwięki niebieskim kolorem	!	!	!	!	!	!	!	!	!	!
8BB-/ 8BBB-/	4g/]	8f\ 8d-\	.	.	.	.	.	.	.	.	.
8r	.	8r	.	.	.	.	.	.	.	.	.
8r	16a-/LL	8r	.	.	.	.	.	.	.	.	.
.	16b-/JJ)	.	.	.	.	.	.	.	.	.	.
=4	=4	=4	=4	=4	=4	=4	=4	=4	=4	=4	=4
*	*	*	*	*^	*	*	*	*^	*	*	*
!LO:SIC:t:v=niewyraźny takt	!	!	!	!	!	!	!	!	!	!	!	!	!
8r	([4.b-/	8r	.	4r	2ryy	.	.	.	4r	2ryy	.	.	.
8.G\L 8.GG\	.	8f\L 8d-\	.	.	.	.	.	.	.	.	.	.	.
.	.	8f\J 8d-\	.	8r	.	.	.	.	8r	.	.	.	.
16G\Jk 16GG\	.	.	.	.	.	.	.	.	.	.	.	.	.
8C/ 8CC/	4b-/]	8en\ 8c\	.	4r	.	.	.	.	4r	.	.	.	.
8r	.	8r	.	.	8ryy	.	.	.	.	8ryy	.	.	.
8c\ 8C\	16a-/LL	8cc\ 8e\ 8c\	.	8C/	8C\	.	.	.	8c/	8En\	gdzie	.	p
.	16g/JJ)	.	.	.	.	.	.	.	.	.	.	.	.
*	*v	*v	*	*	*	*	*	*	*	*	*	*	*
!!LO:LB:g=original
=5	=5	=5	=5	=5	=5	=5	=5	=5	=5	=5	=5	=5
4F\ 4C\ 4FF\	4a-/ 4e-/ 4c/ 4A-'/	.	4C/	4FF\	.	.	.	4A-/	4F\	krzyż	.	.
(8G\ 8C\ 8BB-\	8g/ 8c'/	.	8C/	8BB-\	.	.	.	8G/	8C\	sa-	.	.
!	!	!	!	!	!	!	!	!LO:N:vis=8.	!	!	!	!
4F\ 4C\ 4AA-\	4f/ 4c'/	.	8C/	8AA-\	.	.	.	8F/	8C\	-mot-	.	.
!	!	!	!	!	!	!	!	!LO:TX:t=P:problem=16 zamieniona na 8	!	!	!	!
.	.	.	8C/	8AA-\	.	.	.	8F/	8C\	-ny	.	.
8En\ 8C\ 8GG\	8g/ 8en/ 8c/ 8G'/	.	8C/	8GG\	.	.	.	8G/	8En\	czer-	.	.
=6	=6	=6	=6	=6	=6	=6	=6	=6	=6	=6	=6	=6
8.F\L 8.C\ 8.FF\)	(8.a-\L 8.f\ 8.c\ (8.A-'\	<	(8.C/L	4FF\	.	.	.	(<8.A-/L	4F\	-nie-	.	<
(16F\K 16D-\ (16FF\	16b-\K 16f\ 16d-\ 16B-'\	.	16D-/Jk)	.	.	.	.	16B-/Jk)	.	.	.	.
8A-\J 8F\ 8C\ 8FF\	8cc\J 8a-\ 8f\ 8c'\)	.	8F/	8FF\	.	.	.	8c/	8A-\	-je	.	.
8c\L 8A-\ 8F\))	(8ff\L 8cc\ 8a-\	.	8A-/	8F\	.	.	.	8f/	8c\	w da-	.	.
8F\ 8FF\	8cc\J 8g\ 8e-\ 8c\))	.	8F/	8FF\	.	.	.	8c/	8A-\	-li,	.	.
8E-\J 8C\ 8AA-\	8cc\ 8f\ 8c\	[[	8r	8ryy	.	.	.	8r	8ryy	.	.	.
=7	=7	=7	=7	=7	=7	=7	=7	=7	=7	=7	=7	=7
*	*^	*	*	*	*	*	*	*	*	*	*	*
(8.F\L 8.D-\ 8.BB-\	(8.b-\L 8.f\ 8.d-\	4.ryy	f	8.D-/	8.BB-\	.	.	.	8.B-/	8.F\	klę-	.	[ f
16F\K 16C\ 16FF\	16a-\K 16f\ 16c\	.	.	16C/	16FF\	.	.	.	16A-/	16F\	-czy	.	.
8F\J 8D-\ 8BB-\)	8b-\J 8f\ 8d-\)	.	.	8D-/	8BB-\	.	.	.	8B-/	8F\	sta-	.	.
8F\L 8C\ 8AA-\	8cc\L 8f\ 8c\	4cc/	.	8C/	8AA-\	.	.	.	8c/	8F\	-ru-	.	.
8A-\ 8F\ 8C\ 8FF\	8a-\ 8f\ 8c\	.	.	8C/	8FF\	.	.	.	8c/	8A-\	-szek,	.	.
!	!	!	!LO:DY:rj	!	!	!	!	!	!	!	!	!	!
8F\J 8C\ 8AA-\	8cc\J 8f\ 8c\	8cc/	p	8r	8ryy	.	.	.	8r	8ryy	.	.	.
*	*v	*v	*	*	*	*	*	*	*v	*v	*	*	*
=8	=8	=8	=8	=8	=8	=8	=8	=8	=8	=8	=8
(8.F\L 8.D-\ 8.BB-\	(8.b-\L 8.f\ 8.d-\	.	8.D-\ 8.BB-\	2ryy	.	.	.	8.B-\ 8.F\	klę-	.	p
16F\K 16C\ 16FF\	16a-\K 16f\ 16c\	.	16C\ 16FF\	.	.	.	.	16A-\ 16F\	-czy	.	.
8F\J 8D-\ 8BB-\)	8b-\J 8f\ 8d-\)	.	8D-\ 8BB-\	.	.	.	.	8B-\ 8F\	i	.	.
!LO:TX:t=P:problem=takt niewyraźny	!	!	!	!	!	!	!	!	!	!	!
8F\L 8C\ 8AA-\	(8cc\L 8f\ 8c\	.	8C\ 8GG\	.	.	.	.	8c\ 8F\	pła-	.	.
8B-\ 8En\ 8GG\	8cc\ 8en\ 8c\	.	8En\ 8C\	8ryy	.	.	.	8G\ 8En\	-cze,	.	.
!	!	!	!LO:TX:b:t=oco	!	!	!	!	!	!	!	!
8C\J	8cc\J 8e\ 8c\)	.	8C/	8C\	.	.	.	8c\ 8E\	przy	.	.
*	*	*	*v	*v	*	*	*	*	*	*	*
!!LO:LB:g=original
=9	=9	=9	=9	=9	=9	=9	=9	=9	=9	=9
*	*	*	*	*	*	*	*^	*	*	*
4F\ 4C\ 4FF\	4a-/ 4f/ 4c/ 4A-/	.	4C/ 4FF/	.	.	.	4A-/	4A-\ 4F\	bo	.	.
8G\ 8C\ 8BB-\	8g/ 8c/	.	8C/ 8BB-/	.	.	.	8G/	8G\ 8C\	ku	.	.
4F\ 4C\ 4AA-\	4f/ 4c/	.	4C/ 4AA-/	.	.	.	4F/	4C\	je	.	.
8En\ 8C\ 8GG\	8g/ 8en/ 8c/ 8G/	.	8C/ 8GG/	.	.	.	8G/	8En\	go	.	.
*	*	*	*	*	*	*	*v	*v	*	*	*
=10	=10	=10	=10	=10	=10	=10	=10	=10	=10	=10
(8.F\L 8.C\ 8.FF\	(8.a-\L 8.f\ 8.c\ 8.A-\	.	8.C\ 8.FF\	.	.	.	8.A-\ 8.F\	klin-	.	.
16F\K 16D-\ 16FF\	16b-\K 16f\ 16d-\ 16A-\	.	16D-\ 16FF\	.	.	.	16B-\ 16F\	-ga	.	.
8A-\J 8F\ 8C\ 8FF\	8cc\J 8a-\ 8f\ 8c\)	.	8F\ 8FF\	.	.	.	8c\ 8A-\	ze	.	.
8c\L 8A-\ 8F\)	(8ff\L 8cc\ 8a-\ 8f\	.	8A-\ 8F\	.	.	.	8f\ 8c\	sta-	.	.
8A-\ 8F\	8cc\ 8a-\ 8f\ 8c\)	.	8A-\ 8F\	.	.	.	8c\ 8A-\	-li	.	.
8F-X\J 8FF-X'\	8dd-\J 8a-\ 8d-'\	.	8A-\ 8F-X\	.	.	.	8d-\ 8An\	na	.	.
=11	=11	=11	=11	=11	=11	=11	=11	=11	=11	=11
*	*	*	*	*	*	*	*^	*	*	*
!	!LO:TX:t=P:problem=mixed beam	!	!	!	!	!	!	!	!	!	!
4E-\ 4EE-\	8ee-\L 8a-\ 8e-\ 8c\ 8A-\	.	8.A-\ 8.E-\	.	.	.	8.e-/	8.e-\ 8.c\	pier-	.	.
.	8ee-\ 8b-\ 8e-\ 8B-\ 8G\ 8E-\	.	.	.	.	.	.	.	.	.	.
.	.	.	16G\	.	.	.	16e-/	16B-\	-siach	.	.
!	!LO:TX:a:t=b\ng	!	!	!	!	!	!	!	!	!	!
8D-\ 8DD-\	8ee-\J 8b-\ 8g\ 8d-\ 8B-\ 8G\	.	8G\ 8C\	.	.	.	8e-/	8e-\ 8B-\	na	.	.
8.A-\L 8.C\ 8.CC\	8.ff\L 8.a-\ 8.e-\	.	4A-\ 4C\	.	.	.	(8.f/L	4A-\	pier-	.	.
16A-\K 16C\ 16CC\	16ee-\K 16a-\ 16e-\	.	.	.	.	.	16e-/Jk)	.	.	.	.
8A-\J 8BBn\ 8BBBn\	8ddn\J 8a-\ 8dn\	.	8A-\ 8BBn\	.	.	.	8dn/	8A-\	-siach	.	.
=12	=12	=12	=12	=12	=12	=12	=12	=12	=12	=12	=12
*	*	*	*^	*	*	*	*	*	*	*	*
!	!LO:TX:t=P:problem=takt słabo widoczny	!	!	!	!	!	!	!	!	!	!	!
8B-\L 8BB-\ 8BBB-X\	(8ee-\L 8a-\ 8d-\	.	8A-/	(8A-\ 8BB-X\	.	.	.	8e-/	((8A-\	zna-	.	.
8E-\ 8EE-\	8a-\ 8d-\	.	8E-/	8E-\	.	.	.	(8e-/ 8B-/	8G\)	-mię	.	.
16r	16r	.	16r	16ryy	.	.	.	16r	16ryy	.	.	.
!	!	!	!	!	!	!	!	!LO:TX:t=P:problem=ciężko odczytać tekst	!	!	!	!
16E-\Jk 16EE-\	16dd-\Jk 16g\ 16e-\	.	16En/	16E\	.	.	.	16d-/)	16G\	żoł-	.	.
(8AA-\L 8AAA-\	8cc\L 8a-\)	.	8E/	8AA-\)	.	.	.	8c/	8A-\)	-da-	.	.
8C\J 8CC\)	8cc\ 8g\	.	8C/	8C\	.	.	.	8A-/	8A-\	-cze	.	.
!	!LO:TX:a:t=as	!	!	!	!	!	!	!	!	!	!	!
!	!LO:TX:b:t=es	!	!	!	!	!	!	!	!	!	!	!
8C\ 8CC\	8a-\J 8e-\	.	8r	8ryy	.	.	.	8r	8r	.	.	.
!!LO:PB:g=original
=13	=13	=13	=13	=13	=13	=13	=13	=13	=13	=13	=13	=13
*	*^	*	*	*	*	*	*	*	*	*	*	*
!	!LO:TX:t=P:problem=takty bardzo niewyraźnie	!	!	!	!	!	!	!	!	!	!	!	!LO:DY:rj
(4.En\ (4.EEn\	(4b-/	8.b-\L 8.g\ 8.c\	p	8.En/	8.C\	.	.	.	8.c/	8.G\	Tam	.	p
.	.	16d-\K	.	16E/	16BB-\	.	.	.	16d-/	16G\	pod	.	.
.	8g/	8g\J [8c\	.	8E/	8C\	.	.	.	8B-/	8G\	ka-	.	.
8.F\L 8.FF\))	4a-/)	8c\]L 8A-\	.	4F/	4F\	.	.	.	4A-/	4F\	-mie-	.	.
.	.	8f\	.	.	.	.	.	.	.	.	.	.	.
16A-\K 16AA-\	.	.	.	.	.	.	.	.	.	.	.	.	.
8F\J 8FF\	8b-/ 8f/	8c\J	.	8F/	8FF\	.	.	.	8c/	8A-\	-niem	.	.
=14	=14	=14	=14	=14	=14	=14	=14	=14	=14	=14	=14	=14	=14
(4.B-\ (4.BB-\	(4.g/	8.en\L 8.c\	.	8.C/	8.BB-\	.	.	.	8.en/	8.G\	skrom-	.	.
.	.	16d-\K	.	16D-/	16BB-\	.	.	.	16d-/	16G\	-nej	.	.
.	.	8c\J	.	8En/	8BB-\	.	.	<	8c/	8G\	mo-	.	.
8A-\L 8AA-\))	(8f/L)	8c\L	<	8C/	8AA-\	.	.	.	8f/	8F\	-gi-	.	.
!	!	!	!	!LO:N:vis=16	!	!	!	!	!	!	!	!	!
8F\ 8FF\	8a-/ 8f/)	8c\	.	8F/	8FF\	.	.	.	8c/	8A-\	-ły,	.	.
8A-\J 8AA-\	8cc/J 8f/	8c\J	.	8F/	8F\	.	.	.	8c/	8A-\	to-	.	.
=15	=15	=15	=15	=15	=15	=15	=15	=15	=15	=15	=15	=15	=15
4.F\ 4.FF\	(8.dd-/L	([4.a-\ 4.c\	.	4F/	4F\	.	.	.	(8.d-/L	4A-\	-wa-	.	.
.	16cc/K	.	.	.	.	.	.	.	16c/Jk)	.	.	.	.
.	8dd-/J)	.	.	8F/	8F\	.	.	.	8d-/	8A-\	-zysz	.	.
(4D-\ 4DD-\	(8.ff/L	8.a-\]L 8.f\)	.	8F/	8D-\	.	.	.	8f/	8A-\	sta-	.	.
.	.	.	.	8F/	8FF\	.	.	.	8d-/	8A-\	-żu	.	.
.	16dd-/K)	16a-\K 16d-\	.	.	.	.	.	.	.	.	.	.	.
8F\ 8FF\)	8cc/J	8a-\J	.	8D-/	8FF\	to-	.	.	8c/	8A-\	spo-	.	.
=16	=16	=16	=16	=16	=16	=16	=16	=16	=16	=16	=16	=16	=16
!	!LO:TX:b:t=des	!	!	!LO:N:vis=8.	!	!	!	!	!	!	!	!	!
(8.GG-X\L	(4.cc/	4.a-\ [4.d-\	.	4.D-/	8GG-X\	-wa-	.	.	(4.c/	4.A-\	-czy-	.	.
.	.	.	.	.	8FF\	-rzysz	.	.	.	.	.	.	.
16D-\K 16FF\	.	.	.	.	.	.	.	.	.	.	.	.	.
8GG-\J)	.	.	.	.	8GG-\	spo-	.	.	.	.	.	.	.
(8.B-\L 8.BB-\	4b-/ 4g-X/)	4d-\]	.	4D-/	8BB-\	-czy-	.	.	4B-/)	4G-X\	-wa,	.	.
.	.	.	.	.	8GG-\	-wa	.	.	.	.	.	.	.
16G\K 16GG-\	.	.	.	.	.	.	.	.	.	.	.	.	.
8F\J 8FF\)	8b-/ 8a-/	8dn\	.	8Dn/	8FF\	,	.	[	8B-/	8A-\	a	.	.
*	*v	*v	*	*	*	*	*	*	*v	*v	*	*	*
!!LO:LB:g=original
=17	=17	=17	=17	=17	=17	=17	=17	=17	=17	=17	=17
!	!LO:TX:a:t=des	!	!	!	!	!	!	!	!	!	!LO:DY:rj
(4.G\ (4.GG\	(8.dd-\L 8.b-\ (8.e-\	[ f	8.E-/	8.EE-\	.	.	.	8.e-\ 8.Gn\	Dziś	.	f
.	16f\K	.	16G/	16D-\	.	.	.	16f\ 16B-\	kie-	.	.
.	8e-\J 8d-\	.	8G/	8E-\	.	.	.	8d-\ 8B-\	-dy	.	.
8.A-\L 8.AA-\))	8.cc\L 8.e-\ 8.c\)	.	4A-/	4A-\	.	.	.	4c\ 4A-\	or-	.	.
16c\K 16C\	16a-\K 16e-\)	.	.	.	.	.	.	.	.	.	.
8A-\J 8AA-\	8cc\J 8a-\ 8e-\	.	8A-/	8AA-\	.	.	.	8e-\ 8c\	-ły	.	.
=18	=18	=18	=18	=18	=18	=18	=18	=18	=18	=18	=18
*	*^	*	*	*	*	*	*	*	*	*	*
(4.d-\ (4.D-\	(8.b-\L 8.g\ ((8.e-\	4.ryy	.	8.E-/	8.D-\	.	.	.	8.g\ 8.B-\	oj-	.	.
.	16f\K	.	.	16F/	16D-\	.	.	.	16f\ 16B-\	-ców	.	.
.	8e-\J)	.	.	8G/	8D-\	.	.	<	8e-\ 8B-\	od-	.	.
8.c\L 8.C\))	8.a-/L 8.e-/))	8.e-\L	.	8E-/	8C\	.	.	.	8a-\ 8A-\	-ży-	.	.
.	.	.	.	8A-/	8AA-\	.	.	.	8e-\ 8c\	-ły	.	.
16A-\K 16AA-\	16cc/K 16a-/ 16e-/	16e-\K	.	.	.	.	.	.	.	.	.	.
8c\J 8C\	8ee-/J 8a-/	8a-\J 8e-\	.	8r	8ryy	.	.	.	8r	.	.	.
=19	=19	=19	=19	=19	=19	=19	=19	=19	=19	=19	=19	=19
4.A-\ 4.AA-\	8.ff-X/L	4cc-X\ 4f-X\	.	8.A-/	8.A-\	.	.	[	8.f-X\ 8.c-X\	on	.	.
.	16ee-/K	.	.	16A-/	16A-\	.	.	.	16e-\ 16c-\	go	.	.
.	8ff-/J	2ryy	.	8A-/	8A-\	.	.	.	8f-\ 8c-\	do	.	.
4F-X/ 4FF-X/	(8aa-\L 8cc-\ 8a-\	.	.	8.A-/	8.F-X\	.	.	.	8.a-\ 8.c-\	bo-	.	.
.	(8ff-\ 8cc-\ 8f-\)	.	.	.	.	.	.	.	.	.	.	.
.	.	.	.	16A-/	16AA-\	.	.	.	16f-\ 16c-\	-ju	.	.
8A-/ 8AA-/	8ee-\J 8cc-\ 8f-\)	.	.	8F-X/	8AA-\	do	.	.	8e-\ 8c-\	przy-	.	.
*	*v	*v	*	*	*	*	*	*	*	*	*	*
=20	=20	=20	=20	=20	=20	=20	=20	=20	=20	=20	=20
(8.B--\L 8.BB--\	(4.ee-\ 4.cc-X\ ([4.f-X\	.	4.F-X/	8.BB--\	bo-	.	.	4.e-\ 4.c-X\	-zy-	.	.
16A-\K 16AA-\	.	.	.	16AA-\	-ju	.	.	.	.	.	.
8B--\J 8BB--\)	.	.	.	8BB--\	przy-	.	.	.	.	.	.
(8.d-\L 8.D-\	4dd-\ 4b--\ 4f-\]))	.	4F-/	8.D-\	-zy-	.	.	4d-\ 4B--\	-wa,	.	.
16B--\K 16BB--\)	.	.	.	16BB--\	-wa	.	.	.	.	.	.
!	!	!	!	!	!	!	!	!	!	!	!LO:DY:a
8A-\J 8AA-\	8dd-\ 8cc-\ 8fn\ 8d-\	.	8Fn/	8AA-\	.	.	.	8d-\ 8c-\	i	.	p
!!LO:LB:g=original
=21	=21	=21	=21	=21	=21	=21	=21	=21	=21	=21	=21
*	*^	*	*	*	*	*	*	*^	*	*	*
!	!LO:TX:t=P:problem=takt niewyraźny, ołówkiem dopisane dźwięki, po lewej dźwiękki atramentem + napis "4 takty"	!	!	!	!	!	!	!	!	!	!	!	!
[4.A-\ [4.AA-\	(8.dd-\L (8.d-\	[4.cc-X/ [4.f/	.	[4.Fn/	[4.AA-\	.	.	.	[4.d-/	[4.c-X\	drżą-	.	p
.	16dd-\K 16d-\	.	.	.	.	.	.	.	.	.	.	.	.
.	8dd-\J 8d-\))	.	.	.	.	.	.	.	.	.	.	.	.
8A-\]L 8AA-\]	8dd-\L 8d-\	4.cc-/] 4.f/]	.	8.F/L]	8.AA-\L]	.	.	.	4d-/]	4c-\]	.	.	.
8G-X\ 8GG-X\	8dd-\ 8g-X\ 8d-\	.	.	.	.	.	.	.	.	.	.	.	.
.	.	.	.	16G-X/Jk	16GG-X\Jk	.	.	.	.	.	.	.	.
8F\J 8FF\	8dd-\J 8a-\ 8d-\	.	.	8A-/	8FF\	.	.	.	8d-/	8c-\	-cą	.	.
*	*v	*v	*	*	*	*	*	*	*	*	*	*	*
=22	=22	=22	=22	=22	=22	=22	=22	=22	=22	=22	=22	=22
[4.F\ [4.FF\	(4.ee-\ [4.cc-X\ [4.a-\ (4.e-\	.	[4.A-/	[4.F\	.	.	.	4.e-/	4.c-X\	dło-	.	.
8.F\]L 8.FF\]	8.cc-\]L 8.a-\] 8.d-\))	.	(8A-\]L 8F\]	4.ryy	.	.	.	4.d-/	4.c-\	-nią,	.	.
.	.	.	8G-X\J 8E-\)	.	.	.	.	.	.	.	.	.
16E-\K 16EE-\	16g-X\K	.	.	.	.	.	.	.	.	.	.	.
8D-\J 8DD-\	8dd-\J 8cc-\ 8f\ 8d-\	.	8F\ 8D-\	.	.	.	.	.	.	.	.	.
=23	=23	=23	=23	=23	=23	=23	=23	=23	=23	=23	=23	=23
*	*^	*	*	*	*	*	*	*	*	*	*	*
[4.E-\ [4.EE-\	(8.dd-\L (8.d-\	[>4.cc-X/ [4.g-X/	.	[4.G-X/	[4.E-\	.	.	.	[4.d-/	[4.c-X\	pu-	.	.
.	8dd-\ 8d-\	.	.	.	.	.	.	.	.	.	.	.	.
.	16dd-\Jk 16d-\))	.	.	.	.	.	.	.	.	.	.	.	.
8.E-\]L 8.EE-\]	8.dd-\L 8.f\ 8.d-\	4.cc-\] 4.g-\]	.	8G-/]	8E-\]	.	.	.	8d-/]	8c-\]	.	.	.
.	.	.	.	8F/	8D-\	.	.	.	8d-/	8c-\	-ka	.	.
16D-\K 16DD-\	16dd-\K 16f\ 16d-\	.	.	.	.	.	.	.	.	.	.	.	.
8C-X\J 8CC-X\	8dd-\J 8a-\ 8f\ 8d-\	.	.	8F/	8C-X\	.	.	.	8d-/	8A-\	do	.	.
=24	=24	=24	=24	=24	=24	=24	=24	=24	=24	=24	=24	=24	=24
(4.C-X/ (4.CC-X/	(8.a-\L (8.f\	[4.ee-\ 4.e-\	.	[4.F/	[4.C-X\	.	.	.	4.e-/	[4.A-\	zie-	.	.
.	16a-\K 16f\	.	.	.	.	.	.	.	.	.	.	.	.
.	8a-\J 8f\))	.	.	.	.	.	.	.	.	.	.	.	.
8.BB-/L 8.BBB-/))	8dd-\L 8b-\ 8g-X\ 8d-\	4.ee-/]	.	8F/]	8C-\]	.	.	.	4d-/	8A-\L]	-mi!	.	.
.	8b-\ 8g-\ 8d-\	.	.	8G-X/	8BB-\	.	.	.	.	8B-\J	.	.	.
16D-/K 16DD-/	.	.	.	.	.	.	.	.	.	.	.	.	.
8AA-/J 8AAA-/	8dd-\J 8cc\ 8f\ 8d-\	.	.	8F/	8AA-\	.	.	.	8d-/	8c-X\	, ach	.	.
*	*v	*v	*	*	*	*	*	*	*	*	*	*	*
!!LO:PB:g=original
=25	=25	=25	=25	=25	=25	=25	=25	=25	=25	=25	=25	=25
!	!	!	!	!	!	!	!	!	!	!	!	!LO:DY:a
8.GG-X/L 8.GGG-X/	[4.dd-\ [4.b-\ [4.g-X\ [4.d-\	.	[4.G-X\ [4.GG-X\	2ryy	.	.	.	[4.d-/	[4.B-\	Wstań	.	f
16BB-/K 16BBB-/	.	.	.	.	.	.	.	.	.	.	.	.
8D-/J 8DD-/	.	.	.	.	.	.	.	.	.	.	.	.
4G-X\ 4GG-\	8dd-\]L 8b-\] 8g-\] 8d-\]	.	8G-\] 8GG-\]	.	.	.	.	8d-/]	8B-\]	.	.	.
.	8b-\ 8f\ 8d-\ 8B-\	.	8D-\ 8GG-\	8ryy	.	.	.	8B-/	8G-X\	to-	.	.
!	!	!	!	!	!	!	!	!LO:TX:a:t=un poco piu vio	!	!	!	!
8B-\ 8BB-\	8g-\J 8d-\	.	8BB-/	8BB-\	.	.	.	8G-X/	8D-\	-wa-	.	.
=26	=26	=26	=26	=26	=26	=26	=26	=26	=26	=26	=26	=26
8.e-\L 8.E-\	4.b-/ 4.g-X/ 4.e-/ 4.B-/ 4.G-X/	.	4.E-/	4.E-\	.	.	.	4.E-/	4.E-\	-rzy-	.	.
16B-\K 16BB-\	.	.	.	.	.	.	.	.	.	.	.	.
8G-X\J 8GG-X\	.	.	.	.	.	.	.	.	.	.	.	.
4E-\ 4EE-\	4g-X/ 4e-/ 4B-/	.	4E-/	4E-\	.	.	.	4G-X/	4E-\	-szu	.	.
8D-\ 8DD-\	8b-\ 8g-\ 8e-\	.	8E-/	8D-\	.	.	.	8B-/	8G-X\	je-	.	.
=27	=27	=27	=27	=27	=27	=27	=27	=27	=27	=27	=27	=27
*	*^	*	*	*	*	*	*	*	*	*	*	*
*	*	*	*	*	*	*	*2\right	*	*	*	*	*	*
!	!	!	!	!	!	!	!	!	!	!	!	!	!LO:DY:rj
(8.C-X\L 8.CC-X\	[2.ee-/	[4.cc-X\ [4.g-X\ [4.e-\	.	[4.E-/	(2.C-X\	dy-	.	.	[2.e-/	[4.G-X\	-dy-	.	sf
16E-\K 16EE-\	.	.	.	.	.	.	.	.	.	.	.	.	.
8G-X\J 8GG-X\)	.	.	.	.	.	.	.	.	.	.	.	.	.
(8c-X\L 8C-X\	.	(>8cc-\]L 8g-\] (>8e-\]	.	8E-/]	.	.	.	.	.	8G-\]	.	.	.
8C-\ 8CC-\)	.	8a-\ 8f\ 8e-\))	.	8F/	.	.	.	.	.	8A-\	-ny,	.	.
8C-\J 8CC-\	.	8a-\J 8f\ 8e-\	.	8F/	.	.	.	.	.	8A-\	je-	.	.
=28	=28	=28	=28	=28	=28	=28	=28	=28	=28	=28	=28	=28	=28
(8.BB-\L (8.BBB-\	(4.ee-/] 4.b-/ 4.g-X/ 4.e-/	8e-\L	.	4.G-X/	4.BB-\)	.	.	.	4.e-/]	[4.G-X\	-dy-	.	.
.	.	8b-\	.	.	.	.	.	.	.	.	.	.	.
16E-\K 16EE-\	.	.	.	.	.	.	.	.	.	.	.	.	.
8G-X\J 8GG-X\	.	8g-\J	.	.	.	.	.	.	.	.	.	.	.
8B-\L 8BB-\))	4dd-/)	8dd-\L 8g-\ 8e-\	.	8D-/	8BB-\	-ny!	.	.	8d-/	8G-\]	-ny,	.	.
8BB-\ 8BBB-\	.	8g-\ 8d-\	.	8r	8r	.	.	.	8r	8ryy	.	.	.
!	!	!	!	!	!	!	!	!	!	!	!	!	!LO:DY:a
8G-\J 8GG-\	8b-/	8g-\J 8d-\	.	8D-/	8GG-X\	.	.	.	8B-/	8G-\	ach	.	p
*	*v	*v	*	*	*	*	*	*	*	*	*	*	*
!!LO:LB:g=original
=29	=29	=29	=29	=29	=29	=29	=29	=29	=29	=29	=29	=29
(8.B-\L 8.BB-\	[4.g-X/ [4.d-/ [4.B-/	.	[4.D-/ 4.BB-/	[4.BB-\	.	.	.	[4.G-X/	4.G-\	wstań	.	.
16G-X\K 16GG-X\	.	.	.	.	.	.	.	.	.	.	.	.
8D-\J 8DD-\)	.	.	.	.	.	.	.	.	.	.	.	.
(8BB-\L 8BBB-\	(8g-\]L 8d-\] 8B-\]	.	8D-/]	8BB-\]	.	.	.	8G-/]	8G-\	.	.	.
8GG-X\ 8GGG-X\)	8b-\ 8g-\ 8d-\	.	8D-/	8GG-X\	.	.	.	8B-/	8G-\	to-	.	.
8G-\J 8GG-\	8dd-\J 8b-\ 8g-\ 8d-\)	.	8G-X/	8GG-X\	.	.	.	8d-/	8B-\	-wa-	.	.
=30	=30	=30	=30	=30	=30	=30	=30	=30	=30	=30	=30	=30
(8.E-\L 8.EE-\	([>4.gg-X\ 4.ee-\ [<4.b-\ [<4.g-X\ 4.d-\	.	[4.E-/	[4.E-\	.	.	.	[4.g-X/	[4.B-\	-rzy-	.	.
16G-X\K 16GG-X\	.	.	.	.	.	.	.	.	.	.	.	.
8B-\J 8BB-\)	.	.	.	.	.	.	.	.	.	.	.	.
(8e-\L 8E-\	(8gg-\]L 8ee-\ 8b-\] (8g-\])	.	8E-/]	8E-\]	.	.	.	8g-/]	8B-\]	.	.	.
8E-\ 8EE-\)	8ff\ 8ee-\ 8b-\ 8f\))	.	8E-/	8E-\	.	.	.	8g-/	8B-\	-szy	.	.
8D-\J 8DD-\	8gg-\J 8ee-\ 8b-\ 8g-\	.	8E-/	8D-\	.	.	.	8g-/	8B-\	je-	.	.
=31	=31	=31	=31	=31	=31	=31	=31	=31	=31	=31	=31	=31
*	*	*	*	*	*	*	*	*	*	*2\right	*	*
[4.A-\: [4.E-\: [4.C\: 4.CC:\	8aa-\L 8a-\	.	[4.E-/ 4.C^/	[4.C\	.	.	.	[2.a-/	[2.A-\	-dy-	.	.
.	16ee-\L 16e-\	.	.	.	.	.	.	.	.	.	.	.
.	16ee-\J 16e-\	.	.	.	.	.	.	.	.	.	.	.
.	8ee-\J 8e-\	.	.	.	.	.	.	.	.	.	.	.
8A-\]L 8E-\] 8C\]	[4.aa-\ [4.a-\	.	8E-/]	8C\]	.	.	.	.	.	.	.	.
16A-\L 16E--\ 16C-X\	.	.	8E--/	8C-X\	.	.	.	.	.	.	.	.
16A-\J 16E--\ 16C-\	.	.	.	.	.	.	.	.	.	.	.	.
8A-\J 8E--\ 8C-\	.	.	8E--/	8C-\	.	.	.	.	.	.	.	.
=32	=32	=32	=32	=32	=32	=32	=32	=32	=32	=32	=32	=32
(4.A-\: [4.D-\: [4.BB-X\: 4.CC:\	8aa-\]L 8a-\]	.	(4.D-/	(4.C-X\	.	.	.	4.a-/]	(4.A-\]	.	.	.
.	16dd-\L 16d-\	.	.	.	.	.	.	.	.	.	.	.
.	16dd-\J 16d-\	.	.	.	.	.	.	.	.	.	.	.
.	8dd-\J 8d-\	.	.	.	.	.	.	.	.	.	.	.
8G-X\L 8D-\] 8BB-\])	(8gg-X\L 8g-X\	.	4G-X/)	4BB-\)	.	.	.	4d-/	4G-X\)	-ny	.	.
16G-\L 16BB-\	8dd-\ 8d-\)	.	.	.	.	.	.	.	.	.	.	.
16BB-\J 16BBB-\	.	.	.	.	.	.	.	.	.	.	.	.
8AA-\J 8AAA-\	8dd-\J 8cc-X\ 8f\ 8d-\	.	8F/	8AA-\	.	.	.	8d-/	8c-X\	Bę-	.	f
!!LO:LB:g=original
=33	=33	=33	=33	=33	=33	=33	=33	=33	=33	=33	=33	=33
(8.GG-X\L 8.GGG-X\	[4.dd-\ [4.b-\ [4.g-X\ [4.d-\	.	[4.G-X/	[4.GG-X\	.	.	.	[4.d-/	[4.B-\	-dzie-	.	.
16BB-\K 16BBB-\	.	.	.	.	.	.	.	.	.	.	.	.
8D-\J 8DD-\)	.	.	.	.	.	.	.	.	.	.	.	.
4G-X\ 4GG-\	8dd-\]L 8b-\] 8g-\] 8d-\]	.	8G-/L]	4GG-\]	.	.	.	(8d-/L]	(8B-\L]	.	.	.
.	8b-\ 8g-\ 8d-\ 8B-\	.	8D-/J	.	.	.	.	8B-/J)	8G-X\J)	.	.	.
8B-\ 8BB-\	8g-\J 8d-\	.	8D-/	8BB-\	.	.	.	8G-X/	8G-X\	-my	.	.
=34	=34	=34	=34	=34	=34	=34	=34	=34	=34	=34	=34	=34
8.e-\L 8.E-\	(4.e-\ 4.B-\ 4.G-X\ 4.E-\	.	[4.E-/	[4.E-\	.	.	.	(4.E-/	(4.E-\	wal-	.	.
16B-\K 16BB-\	.	.	.	.	.	.	.	.	.	.	.	.
8G-X\J 8GG-X\	.	.	.	.	.	.	.	.	.	.	.	.
4E-\ 4EE-\	8g\ 8e-\ 8B-\	.	4E-/]	4E-\]	.	.	.	4G-X/)	4G-\)	.	.	.
.	8b-\ 8g\ 8e-\)	.	.	.	.	.	.	.	.	.	.	.
8D-\ 8DD-\	[8ee-\ 8b-\ 8g\ 8e-\	.	8E-/	8D-\	.	.	.	8B-/	8G-\	-czyć	.	.
*	*	*	*v	*v	*	*	*	*	*	*	*	*
=35	=35	=35	=35	=35	=35	=35	=35	=35	=35	=35	=35
[4.C/ [4.CC/	8.ee-\]L 8.b-\ 8.g-X\	.	[4.G-X\ [4.C\	.	.	.	[4.e-/	4.B-\	z wro-	.	.
.	16b-\K 16g-\ 16e-\	.	.	.	.	.	.	.	.	.	.
.	[8ee-\J [<8b-\ [8g-\	.	.	.	.	.	.	.	.	.	.
4C/] 4CC/]	8ee-\]L 8b-\] 8g-\]	.	8G-\] 8C\]	.	.	.	8e-/]	8B-\	.	.	.
.	8ff\ 8ee-\ 8an\ 8f\	.	8E-\ 8C\	.	.	.	8f/	8An\	-gi	.	.
8BB-/ 8BBB-/	8gg-X\J 8ee-\ 8b-\ 8g-\	.	8E-\ 8BB-\	.	.	.	8g-X/	8B-\	na-	.	.
=36	=36	=36	=36	=36	=36	=36	=36	=36	=36	=36	=36
!	!	!	!	!	!	!	!LO:N:vis=4	!	!	!	!
4.AAn/ 4.AAAn/	4.gg-X\ 4.ee-\ 4.cc\ 4.g-X\	.	4.E-\ 4.AAn\	.	.	.	4.g-X/	4.c\	-sze-	.	.
4An\ 4AAn\	4cc\ 4g-\ 4e-\	.	4E-\ 4GG\	.	.	.	4c/	4G-X\	-mi,	.	.
8A-X\ 8AA-X\	8cc\ 8g-\ 8e-\	.	8E-\ 8AA-X\	.	.	.	8c/	8G-\	za	.	.
!!LO:PB:g=original
=37	=37	=37	=37	=37	=37	=37	=37	=37	=37	=37	=37
*	*	*	*^	*	*	*	*	*	*	*	*
(4.G\ (4.GG\	8.cc\L 8.g\ 8.e-\	.	[4.E-/	(4.GG\	.	.	.	[4.c/	(4.Gn\	oj-	.	.
.	16g\K 16e-\ 16c\	.	.	.	.	.	.	.	.	.	.	.
.	[8cc\J 8g\ [8e-\	.	.	.	.	.	.	.	.	.	.	.
8G-X\L 8GG-X\))	8cc\]L 8g\ 8e-\]	.	8E-/]	8GG-X\)	.	.	.	8c/]	8A-\)	.	.	.
8F\ 8FF\	8dd-\ 8a-\ 8d-\	.	8D-/	8FF\	.	.	.	8d-/	8A-\	-ców,	.	.
8E-\J 8C\ 8EE-\	8ee-\J 8cc\ 8a-\	.	8A-/	8C\	.	.	.	8e-/	8A-\	za	.	.
=38	=38	=38	=38	=38	=38	=38	=38	=38	=38	=38	=38	=38
8.D-\L 8.DD-\	(4.ff\ 4.dd-\ ([4.a-\	.	[>4.A-/	(4.D-\	.	.	.	(4.f/	(4.d-\	o-	.	.
16C\K 16CC\	.	.	.	.	.	.	.	.	.	.	.	.
8BB-\J 8BBB-\	.	.	.	.	.	.	.	.	.	.	.	.
8C\L 8CC\	8aa-\L 8cc\ 8a-\]))	.	4A-/]	8C\L	.	.	.	8a-/L	8e-\L	.	.	.
8D-\ 8DD-\	8ff\ 8dd-\ 8a-'\	.	.	8D-\J)	.	.	.	8f/J)	8d-\J)	.	.	.
8F\J 8FF\	8dd-\J 8a-\ 8d-'\	.	8A-/	8F\	.	.	.	8d-/	8d-\	-ców	.	.
=39	=39	=39	=39	=39	=39	=39	=39	=39	=39	=39	=39	=39
8.A-\L 8.AA-\	[4.ff\ [4.dd-\ [4.a-\ [4.f\	.	[4.A-/	[4.A-\	.	.	.	[4.f/ 4.d-/	[4.d-\	na-	.	.
16d-\K 16D-\	.	.	.	.	.	.	.	.	.	.	.	.
8f\J 8F\	.	.	.	.	.	.	.	.	.	.	.	.
8a-\L 8A-\	8ff\]L 8dd-\] 8a-\] 8f\]	.	8A-/]	8A-\]	.	.	.	8f/] 8d-/	8d-\]	.	.	.
8A-\ 8AA-\	8ff\ 8dd-\ 8a-\ 8f\	.	8A-/	8AA-\	.	.	.	8f/	8d-\	-szych	.	.
8G-X\J 8AAn\	8ee-\J 8cc\ 8g-X\ 8e-\	.	8G-X/	8AAn\	.	.	.	8e-/	8c\	dzie-	.	.
=40	=40	=40	=40	=40	=40	=40	=40	=40	=40	=40	=40	=40
(4.G-X\ (4.AAn\	(16ee-\LL 16cc\ (16e-\	.	4.G-X/	4.AAn\	.	.	.	4.e-/ 4.c/	4.c\	-dzi-	.	.
.	16g-X\	.	.	.	.	.	.	.	.	.	.	.
.	16e-\	.	.	.	.	.	.	.	.	.	.	.
.	16cc\	.	.	.	.	.	.	.	.	.	.	.
.	16g-\	.	.	.	.	.	.	.	.	.	.	.
.	16e-\JJ)	.	.	.	.	.	.	.	.	.	.	.
4.F\ 4.BB-\))	4.dd-\ 4.b-\ 4.f\ 4.d-\)	.	4.F/	4.BB-\	.	.	.	4.d-/ 4.B-/	4.B-\	-ny	.	.
!!LO:LB:g=original
=41	=41	=41	=41	=41	=41	=41	=41	=41	=41	=41	=41	=41
*^	*	*	*	*	*	*	*	*	*	*	*	*
!	!	!	!	!	!	!	!	!	!	!	!	!	!LO:DY:rj
[4.F/	(16AA-\LL	[4.dd-\ [<4.cc-X\ [4.d-\	.	[4.F/	[4.AA-X\	.	.	.	[4.d-X/	[4.c\	Tyś	.	p
.	16D-\	.	.	.	.	.	.	.	.	.	.	.	.
.	16C-X\	.	.	.	.	.	.	.	.	.	.	.	.
.	16AA-\	.	.	.	.	.	.	.	.	.	.	.	.
.	16D-\	.	.	.	.	.	.	.	.	.	.	.	.
.	16C-\JJ)	.	.	.	.	.	.	.	.	.	.	.	.
8F\]L 8AA-\	4.ryy	8dd-\]L 8cc-\] 8d-\]	.	8F/]	8AA-\]	.	.	.	8d-/]	8c\]	.	.	.
8A-\ 8AA-\	.	8ff\ 8dd-\ 8cc-\ 8f\	.	8D-/	8AA-\	.	.	.	8f/	8c\	mi	.	.
8c-X\J 8C-\	.	8ee-\J 8a-\ 8g-X\ 8e-\	.	8F/	8C-X\	.	.	.	8e-/	8A-\	przed	.	.
=42	=42	=42	=42	=42	=42	=42	=42	=42	=42	=42	=42	=42	=42
[4.B-/	16BB-\LL	(4.ee-\ [<4.g-X\ (4.e-\	.	4.G-X/	4.BB-\	.	.	.	4.e-/	4.G-X\	chlub-	.	.
.	16G-X\	.	.	.	.	.	.	.	.	.	.	.	.
.	16D-\	.	.	.	.	.	.	.	.	.	.	.	.
.	16BB-\	.	.	.	.	.	.	.	.	.	.	.	.
.	16G-\	.	.	.	.	.	.	.	.	.	.	.	.
.	16D-\JJ	.	.	.	.	.	.	.	.	.	.	.	.
4B-\] 4BB-\	4.ryy	4dd-\ 4g-\] 4d-\))	.	4G-/	4BB-\	.	.	.	4d-/	4G-\	-nym	.	.
8BB-/ 8BBB-/	.	8dd-\ 8g-\ 8d-\	.	8G-/	8BB-\	przed	.	.	8d-/	8G-\	przed	prze-	.
*v	*v	*	*	*	*	*	*	*	*	*	*	*	*
=43	=43	=43	=43	=43	=43	=43	=43	=43	=43	=43	=43	=43
8AA-/L 8AAA-/	(8ee-\L 8cc-X\ (8e-\	.	[4.F/	8AA-\	chlub-	.	.	[4.e-/	8c-X\	chlub-	-ka-	.
8BB-/ 8BBB-/	8b-\	.	.	8BB-\	-nym	.	.	.	8B-\	-nym	.	.
8C-X/J 8CC-X/	8a-\J)	.	.	8C-X\	prze-	.	.	.	8A-\	prze-	.	.
4C-/ 4CC-/	8ee-\L 8a-\ 8f\ 8e-\)	.	4F/]	4C-\	-ka-	.	.	8e-/]	4A-\	-ka-	.	.
.	8dd-\ 8d-\	.	.	.	.	.	.	8d-/	.	.	.	.
8D-\ 8DD-\	8cc-\J 8a-\ 8f\ 8c-X\	.	8F/	8D-\	-zał	.	.	8c-/	8A-\	-zał	-zał	.
=44	=44	=44	=44	=44	=44	=44	=44	=44	=44	=44	=44	=44
!	!LO:TX:t=P:problem=po prawej dopisane dźwięki	!	!	!	!	!	!	!	!	!	!	!
(4.AA-/ (4.AAA-/	(>4.cc-X\ 4.f\ [4.d-\ (<(<4.c-X\	.	4.D-/	4.AA-\	.	.	.	4.c-X/	4.F\	zgo-	.	.
4GG-X/ 4GGG-X/))	4b-\ 4g-X\ 4d-\] 4B-\)))	.	4.D-/	4.GG-X\	.	.	.	4.B-/	4.G-X\	-nem	.	.
8G-X\ 8GG-\	8b-\ 8g-\ 8d-\ 8B-\	.	.	.	.	.	.	.	.	.	.	.
!!LO:LB:g=original
=45	=45	=45	=45	=45	=45	=45	=45	=45	=45	=45	=45	=45
*^	*	*	*	*	*	*	*	*	*	*	*	*
[4.F/	(16FF\LL	[4.bn\ [4.g\ [4.dn\ [4.Bn\	.	[4.Dn/	[4.FF\	.	.	.	[4.Bn/	[4.G\	a-	.	.
.	16BBn\	.	.	.	.	.	.	.	.	.	.	.	.
.	16GG\	.	.	.	.	.	.	.	.	.	.	.	.
.	16FF\	.	.	.	.	.	.	.	.	.	.	.	.
.	16BB\	.	.	.	.	.	.	.	.	.	.	.	.
.	16GG\JJ	.	.	.	.	.	.	.	.	.	.	.	.
8F/]L 8FF/)	4.ryy	8b\]L 8g\] 8d\] 8B\]	.	8D/]	8FF\]	.	.	.	8B/]	8G\]	.	.	.
8BB/ 8BBBn/	.	8an\ 8f\ 8d\ 8An\	.	8BBn/	8BB\	.	.	.	8An/	8Dn\	-bym	.	.
8BB-X/J 8BBB-X/	.	8g\J 8d\ 8G\	.	8D/	8BB\	.	.	.	8G/	8F\	gdy	.	.
*v	*v	*	*	*	*	*	*	*	*	*	*	*	*
=46	=46	=46	=46	=46	=46	=46	=46	=46	=46	=46	=46	=46
[4.C\ [4.CC\	(4.an/ [4.en/ [4.c/ (4.An/	.	[4.C/	[4.C\	.	.	.	(4.An/	[4.En\	chwi-	.	.
8C\]L 8CC\]	8g\L 8e\] 8c\] 8G\))	.	8C/]	8C\]	.	.	.	8G/)	8E\]	.	.	.
8En\ 8EEn\	8cc\ 8g\ 8c\	.	8En/	8E\	.	.	.	8c/	8G\	-la	.	<
8C\J 8CC\	8een\J 8cc\ 8g\	.	8G/	8C\	gdy	gdy	.	8en/	8c\	.	.	.
=47	=47	=47	=47	=47	=47	=47	=47	=47	=47	=47	=47	=47
!	!LO:TX:t=P:problem=mixed beam	!	!	!	!	!	!	!	!	!	!	!
[4.BBn\ [4.BBBn\	8.een\L 8.ddn\ 8.en\	.	8.G#X/	[4.BBn\	chwi-	chwi-	.	[2.en/	(2.dn\	.	.	.
.	16En</K	<	16E-/	.	-la	.	.	.	.	.	.	.
.	8F#X</J	.	8F#X/	.	gdy	.	.	.	.	.	.	.
8.BB\]L 8.BBB\]	8.G#X</L	.	8.G#/	8.BB\]	chwi-	.	.	.	.	.	.	.
16AAn\K 16AAAn\	16An</K 16E</	.	16An/	16AAn\	-la	-la	.	.	.	.	.	.
8GG#X\J 8GGG#X\	8Bn</J 8E</	.	8Bn/	8GG#X\	wy-	wy-	.	.	.	.	.	.
=48	=48	=48	=48	=48	=48	=48	=48	=48	=48	=48	=48	=48
*	*^	*	*	*	*	*	*	*	*	*	*	*
4.AAn\ 4.AAAn\	4r	4.c#X</ 4.En</	.	4.An/	4.AAn\	-bi-	-bi-	.	4.en/]	4.c#X\)	.	.	[
.	8r	.	.	.	.	.	.	.	.	.	.	.	.
4C#X\ 4CC#X\	4r	4An</ 4E</	[	4En/	4C#X\	-je	-je	.	4An/	4A\	.	.	.
!	!LO:TX:t=P:problem=po prawej dopisane dźwięki	!	!	!	!	!	!	!	!	!	!	!	!
!	!	!	!LO:DY:rj	!	!	!	!	!	!	!	!	!	!
8A-\ 8AA\	8een\ 8cc#X\ 8en\	8ryy	p	8A/	8AA\	bym	.	.	8eny/	8c#\	.	.	.
*	*v	*v	*	*	*	*	*	*	*	*	*	*	*
!!LO:PB:g=original
=49	=49	=49	=49	=49	=49	=49	=49	=49	=49	=49	=49	=49
*^	*	*	*	*	*	*	*	*	*	*	*	*
[4.G/	16BB-X\LL	[4.ee-X\ [<4.dd-X\ [4.e-X\	.	[4.Gn/	[4.BB-X\	.	.	.	[4.e-X/	[4.d-\	zbu-	.	.
.	16E-X\	.	.	.	.	.	.	.	.	.	.	.	.
.	16D-X\	.	.	.	.	.	.	.	.	.	.	.	.
.	16BB-\	.	.	.	.	.	.	.	.	.	.	.	.
.	16E-\	.	.	.	.	.	.	.	.	.	.	.	.
.	16D-\JJ	.	.	.	.	.	.	.	.	.	.	.	.
8G\]L 8BB-\	4.ryy	8ee-\]L 8dd-\] 8e-\]	.	8G/]	8BB-\]	.	.	.	8e-/]	8d-\]	.	.	.
8B-\ 8BB-\	.	8gg\ 8ee-\ 8dd-\ 8g\	.	8E-X/	8BB-\	.	.	.	8g/	8d-\	-dził	.	.
8d-\J 8D-\	.	8ff\J 8b-\ 8g\ 8f\	.	8G/	8D-\	.	.	.	8f/	8B-\	cię	.	.
=50	=50	=50	=50	=50	=50	=50	=50	=50	=50	=50	=50	=50	=50
[4.c/	(>16C\LL	(4.ff\ [4.a-\ (4.f\	.	4.A-/	4.C\	.	.	.	4.f/	4.A-\	ze	.	.
.	16A-\	.	.	.	.	.	.	.	.	.	.	.	.
.	16E-\	.	.	.	.	.	.	.	.	.	.	.	.
.	16C\	.	.	.	.	.	.	.	.	.	.	.	.
.	16A-\	.	.	.	.	.	.	.	.	.	.	.	.
.	16E-\JJ	.	.	.	.	.	.	.	.	.	.	.	.
!	!	!	!	!	!	!	!	!	!LO:N:vis=4	!	!	!	!
4c/]	[4C\)	4ee-\ 4a-\] 4e-\))	.	4A-/	4C\	.	.	.	4e-/	4A-\	snu	.	.
8C/] 8CC/	8ryy	8ee-\ 8a-\ 8e-\	.	8A-/	8C\	na-	.	.	8e-/	8A-\	na-	.	.
*v	*v	*	*	*	*	*	*	*	*	*	*	*	*
=51	=51	=51	=51	=51	=51	=51	=51	=51	=51	=51	=51	=51
*	*^	*	*	*	*	*	*	*	*	*	*	*
8BB-\L 8BBB-\	8dd-\L	(4.ff\ (4.f\	.	[4.G/	8BB-\	-tchnio-	.	.	[4.f/	8d-\	-tchnio-	.	.
8C\ 8CC\	8cc\	.	.	.	8C\	-nem	.	.	.	8c\	-nem,	.	.
8D-\J 8DD-\	8b-\J	.	.	.	8D-\	na-	.	.	.	8B-\	na-	.	.
4D-\ 4DD-\	8ff\L 8b-\ 8f\	4g/))	.	4G/]	4D-\	-tchnio-	.	.	(<8f/L]	4B-\	-tchnio-	.	.
.	8ee-\ 8e-\	.	.	.	.	.	.	.	8e-/J)	.	.	.	.
8E-\ 8EE-\	8dd-\J 8b-\ 8g\ 8d-\	8ryy	.	8G/	8E-\	-nem	.	.	8d-/	8B-\	-nem	.	.
*	*v	*v	*	*	*	*	*	*	*	*	*	*	*
=52	=52	=52	=52	=52	=52	=52	=52	=52	=52	=52	=52	=52
(4.BB-/ (4.BBB-/	(4.dd-\ 4.g\ 4.e-\ (4.d-\	.	4.E-/	4.BB-\	sło-	.	.	4.d-/	4.G\	sło-	.	.
!	!LO:TX:a:t=x	!	!	!	!	!	!	!	!	!	!	!
4AA-/ 4AAA-/))	4cc\ 4a-\ 4e-\ 4c\))	.	4E-/	4AA-\	-wem,	.	.	4c/	4A-\	-wem,	.	.
!	!LO:TX:t=P:problem=po prawej dopisane dźwięki	!	!	!	!	!	!	!	!	!	!	!
8A-\ 8AA-\	8cc\ 8a-\ 8e-\ 8c\	.	8E-/	8AA-\	.	.	.	8c/	8A-\	że	.	.
!!LO:LB:g=original
=53	=53	=53	=53	=53	=53	=53	=53	=53	=53	=53	=53	=53
*^	*	*	*	*	*	*	*	*	*	*	*	*
!	!	!	!	!	!	!	!	!	!	!	!	!	!LO:DY:rj
[4.G/	16GG\LL	[4.cc#X\ [4.an\ [4.en\ [4.c#X\	.	[4.En/	[4.GG\	.	.	.	[4.c#X/	[4.An\	Pol-	.	f
.	(>16C#X\	.	.	.	.	.	.	.	.	.	.	.	.
.	16AAn\	.	.	.	.	.	.	.	.	.	.	.	.
.	16GG\	.	.	.	.	.	.	.	.	.	.	.	.
.	16C#\	.	.	.	.	.	.	.	.	.	.	.	.
.	16AA\JJ)	.	.	.	.	.	.	.	.	.	.	.	.
8G\]L 8GG\	4.ryy	8cc#\]L 8a\] 8e\] 8c#\]	.	8E/L]	(8GG\L]	.	.	.	8c#/L]	8A\L]	.	.	.
8Cn\ 8CC\	.	8bn\ 8g\ 8e\ 8Bn\	.	8C#X/J	8C#X\J)	.	.	.	8Bn/J	8E-\J	.	.	.
8C\J 8CC\	.	8a\J 8g\ 8e\ 8A-\	.	8E/	8C#\	.	.	.	8An/	8G\	-ska	.	.
*v	*v	*	*	*	*	*	*	*	*	*	*	*	*
=54	=54	=54	=54	=54	=54	=54	=54	=54	=54	=54	=54	=54
[4.Dn\ [4.DDn\	(4.bn\ [4.f#X\ [4.d-\ 4.Bn\	.	[4.Dn/	[4.D\	.	.	.	(4.Bn/	[4.F#X\	na-	.	.
8D\]L 8DD\]	8an\L 8f#\] 8d-\] 8An\)	.	8D/]	8D\]	.	.	.	8An/)	8F#\]	.	.	.
8F#X\ 8FF#X\	8ddn\ 8a\ 8d-\	.	8F#X/	8F#\	.	.	.	8dn/	8An\	-sza	.	.
8D\J 8DD\	8ff#X\J 8dd\ 8a\ 8f#\	.	8An/ 8D/	8D\	że	.	.	8f#X/	8dn\	znów	.	.
=55	=55	=55	=55	=55	=55	=55	=55	=55	=55	=55	=55	=55
!	!LO:TX:t=P:problem=mixed beam	!	!	!	!	!	!	!	!	!	!	!
[4.C#X\ [4.CC#X\	8.ff#X\L 8.een\ 8.f#X\	.	(8.A#X/L	[4.C#X\	Pol-	.	.	[2.f#X/	(2.en\	ży-	.	.
.	16F#X</K	.	16F#X/Jk)	.	.	.	.	.	.	.	.	.
.	8G#X</J	.	8G#X/	.	-ska	.	.	.	.	.	.	.
8.C#\]L 8.CC#\]	8.A#X</L	.	8.A#/	8.C#\]	na-	.	.	.	.	.	.	.
16BB-\K 16BBB-\	16Bn</K 16F#</	.	16Bn/	16BBn\	-ska	.	.	.	.	.	.	.
8AA#X\J 8AAA#X\	8c#X</J 8F#</	.	8c#X/	8AA#X\	znów	.	.	.	.	.	.	.
=56	=56	=56	=56	=56	=56	=56	=56	=56	=56	=56	=56	=56
*	*^	*	*	*	*	*	*	*	*	*	*	*
4.F#X\ 4.BBn\ 4.BBBn\	4r	4.d#X</	.	4.Bn/	4.BBn\	ży-	.	.	4.f#/]	4.d#X\)	.	.	.
.	8r	.	.	.	.	.	.	.	.	.	.	.	.
4DD#X\	4r	4Bn</ 4F</ 4D#X</	.	4F#X/	4D#X\	-je	.	.	4Bn/	4B\	-je!	.	.
8Bn\ 8BB\	8f#X\ 8d#X\	8ryy	.	8B/	8B\ 8BB\	.	.	.	8f#y/	8d#\	dziś	.	.
*	*v	*v	*	*	*	*	*	*	*	*	*	*	*
!!LO:LB:g=original
=57	=57	=57	=57	=57	=57	=57	=57	=57	=57	=57	=57	=57
*^	*	*	*	*	*	*	*	*	*	*	*	*
4.A-/	(>16C\LL	[4.ff#X\ 4.ddn\ [4.a-\ [4.f#X\	.	[4.An/	[4.C\	.	.	.	[4.f#/	[4.dn\	juz	.	.
.	16F#X\	.	.	.	.	.	.	.	.	.	.	.	.
.	16Dn\	.	.	.	.	.	.	.	.	.	.	.	.
.	16C\	.	.	.	.	.	.	.	.	.	.	.	.
.	16F#\	.	.	.	.	.	.	.	.	.	.	.	.
.	16D\JJ)	.	.	.	.	.	.	.	.	.	.	.	.
4A-\ 4C\ 4FF\	4.ryy	(8ff#\]L 8dd\ 8a-\] 8f#\]	.	(8A/L]	8C\]	.	.	.	(<8f#/L]	(8d\L]	.	.	.
.	.	8een\ 8a-\ 8f#X\	.	8F#X/J)	8C\	.	.	.	8en/J)	8An\J)	.	.	.
8A-\ 8D-X\ 8C\	.	8dd\J 8a-\ 8f#\)	.	8F#/	8C\	.	.	.	8d/	8A\	ma	.	.
*v	*v	*	*	*	*	*	*	*	*	*	*	*	*
=58	=58	=58	=58	=58	=58	=58	=58	=58	=58	=58	=58	=58
8.G\L 8.Dn\ 8.BBn\	16gg\LL 16dd-\ 16g\	.	(<8.G/L	(8.BBn\L	.	.	.	8g/	8dn\	woj-	.	.
.	16ddn\ 16dn\	.	.	.	.	.	.	.	.	.	.	.
.	16dd\ 16d\	.	.	.	.	.	.	8dn/	8dn\	-ny	.	.
16An\K 16Dn\	16dd\J 16d\	.	16An/Jk)	16Dn\Jk)	.	.	.	.	.	.	.	.
8Bn\J 8G\	[8dd\J [8d\	.	8Bn/	8G\	.	.	.	8r	4.ryy	.	.	.
(8A\L 8D\	8.dd\]L 8.d\]	.	8A/	8D\	.	.	.	4r	.	.	.	.
8G\ 8BB\)	.	.	8G/	8BB\	.	.	.	.	.	.	.	.
.	16gg\L 16g\	.	.	.	.	.	.	.	.	.	.	.
8D\J	16b-\	.	8Dn/	8D\	.	.	.	8d/	8d\	i	.	.
.	16dd\JJ 16d\	.	.	.	.	.	.	.	.	.	.	.
=59	=59	=59	=59	=59	=59	=59	=59	=59	=59	=59	=59	=59
*^	*	*	*	*	*	*	*	*	*	*	*	*
4.A-/	(>16C\LL	[4.ff#X\ 4.ddn\ [4.an\ [4.f#X\	.	[4.An/	[4.C\	.	.	.	[4.f#X/	[4.dn\	szczęk	.	.
.	16F#X\	.	.	.	.	.	.	.	.	.	.	.	.
.	16Dn\	.	.	.	.	.	.	.	.	.	.	.	.
.	16C\	.	.	.	.	.	.	.	.	.	.	.	.
.	16F#\	.	.	.	.	.	.	.	.	.	.	.	.
.	16D\JJ)	.	.	.	.	.	.	.	.	.	.	.	.
4A-\ 4C\ 4FF\	4.ryy	(8ff#\]L 8dd\ 8a\] 8f#\]	.	(8A/L]	4C\]	.	.	.	(8f#/L]	(8d\L]	.	.	.
.	.	8een\ 8a\ 8f#\)	.	8F#X/J)	.	.	.	.	8en/J)	8An\J)	.	.	.
8A-\ 8D\ 8C\	.	8dd\J 8a\ 8f#\	.	8F#/	8C\	.	.	.	8d/	8A\	o-	.	.
*v	*v	*	*	*	*	*	*	*	*	*	*	*	*
=60	=60	=60	=60	=60	=60	=60	=60	=60	=60	=60	=60	=60
8.G\L 8.Dn\ 8.BBn\	8gg\ 8ddn\ 8g\	.	(8.G/L	8.BBn\L	.	.	.	8g/	8dn\	-rę-	.	.
.	[4dd\ [4dn\	.	.	.	.	.	.	8dn/	8dn\	-ża,	.	.
16An\K 16Dn\	.	.	16An/Jk)	16Dn\Jk	.	.	.	.	.	.	.	.
8Bn\J 8G\	.	.	8Bn/	8G\	.	.	.	8r	4.ryy	.	.	.
(8A\L (8D\	8.dd\]L 8.d\]	.	8A/	8D\	.	.	.	4r	.	.	.	.
8G\ 8BB\))	.	.	8G/	8BB\	.	.	.	.	.	.	.	.
.	16gg\K 16g\	.	.	.	.	.	.	.	.	.	.	.
8G\J 8GG\	8dd\J 8bn\	.	8G/	8GG\	.	.	.	8d/	8d\ 8Bn\	przez	.	.
!!LO:PB:g=original
=61	=61	=61	=61	=61	=61	=61	=61	=61	=61	=61	=61	=61
8.E-X\L 8.GG\	8ee-X\ 8b-X\ 8e-X\	.	(8.E-X/L	(8.GG\L	już	.	.	8e-X/	8B-X\	oj-	.	.
.	[4b-\ [4B-\	.	.	.	.	.	.	8B-X/	8B-X\	-ców	.	.
16F\K 16BB--\	.	.	16F/Jk)	16BB-\Jk)	.	.	.	.	.	.	.	.
8G\J 8E-\	.	.	8G/	8E-\	ma	.	.	8r	8ryy	.	.	.
!	!	!	!	!	!	!	!	!LO:TX:a:t=po	!	!	!	!
(8F\L (8BB--\	8.b-\]L 8.B-\]	.	8F/	8BB-\	woj-	.	.	8B-/	8B-\	bieg-	.	.
8E-\ 8GG\))	.	.	8E-/	8GG\	-ny	.	.	8B-/	8B-\	-ną	.	.
.	16eee-\K 16ee-\	.	.	.	.	.	.	.	.	.	.	.
!	!	!	!	!	!	!	!	!LO:TX:t=P:problem=tekst niewidoczny	!	!	!	!
!	!	!	!	!	!	!	!	!LO:TX:a:t=-	!	!	!	!
8E-\J 8EE-\	8bb-\J 8gg\ 8b-\	.	8E-/	8E-\	i	.	.	8B-/	8G\	.	.	.
=62	=62	=62	=62	=62	=62	=62	=62	=62	=62	=62	=62	=62
8.c\L 8.E-\	8ccc\ 8gg\ 8cc\	.	8.c/L	8.E-\L	szczęk	.	.	8c/	8G\	i-	.	.
!	!	!	!	!	!	!	!	!LO:TX:a:t=co	!	!	!	!
.	[4gg\ [4g\	.	.	.	.	.	.	8G/	8G\	-ny	.	.
16dn\K 16G\	.	.	16dn/Jk	16G\Jk	.	.	.	.	.	.	.	.
8e-\J 8c\	.	.	8e-/	8c\	o-	.	.	8r	2ryy	.	.	.
(8d\L (8G\	8.gg\]L 8.g\]	.	8d/	8G\	-rę-	.	.	4r	.	.	.	.
8c\ 8E-\))	.	.	8c/	8E-\	-ża	.	.	.	.	.	.	.
.	16ccc\K 16cc\	.	.	.	.	.	.	.	.	.	.	.
8c\J 8C\	8gg\J 8ee-\ 8g\	.	8r	8ryy	.	.	.	8r	.	.	.	.
=63	=63	=63	=63	=63	=63	=63	=63	=63	=63	=63	=63	=63
*^	*	*	*	*	*	*	*	*	*	*	*	*
[4.B-/	16D-\LL	[4.gg\ [4.ee-\ [4.b-\ [4.g\	.	[4.B-/	[4.D-\	Patrz!	.	.	[4.g/ 4.e-/	[4.e-\	Patrz!	.	.
.	16G\	.	.	.	.	.	.	.	.	.	.	.	.
.	16E-\	.	.	.	.	.	.	.	.	.	.	.	.
.	16D-\	.	.	.	.	.	.	.	.	.	.	.	.
.	16G\	.	.	.	.	.	.	.	.	.	.	.	.
.	16E-\JJ	.	.	.	.	.	.	.	.	.	.	.	.
!	!	!	!	!	!	!	!	!	!LO:TX:a:t=a	!	!	!	!
4B-/]	4D-\	8.gg\]L 8.ee-\] 8.b-\] 8.g\]	.	8B-/]	4D-\]	.	.	.	8g/]	8e-\	.	.	.
.	.	.	.	8G/	.	.	.	.	8f/	8B-\	jak	.	.
.	.	16ff\K 16b-\ 16g\	.	.	.	.	.	.	.	.	.	.	.
8B-/	8E-\ 8D-\	8ee-\J 8b-\ 8g\	.	8G/	8D-\	ach	.	.	8e-/	8B-\	w od-	.	.
*v	*v	*	*	*	*	*	*	*	*	*	*	*	*
=64	=64	=64	=64	=64	=64	=64	=64	=64	=64	=64	=64	=64
8.A-\L 8.C\	8aa-\ 8ee-\ 8a-\	.	8.A-/	8.C\	patrz	.	.	8a-/	8e-\	-da-	.	.
!	!	!	!	!	!	!	!	!LO:TX:a:t=po	!	!	!	!
.	[4ee-\ [4e-\	.	.	.	.	.	.	8e-/	8e-\	-li	.	.
16B-\K 16E-\	.	.	16B-/	16E-\	jak	.	.	.	.	.	.	.
8c\J 8A-\	.	.	8c/	8A-\	w od-	.	.	8r	4.ryy	.	.	.
8B-\L 8E-\	8.ee-\]L 8.e-\]	.	8B-/	8E-\	-da-	.	.	4r	.	.	.	.
8A-\ 8C\	.	.	8A-/	8C\	-li	.	.	.	.	.	.	.
.	16aa-\K 16a-\	.	.	.	.	.	.	.	.	.	.	.
!	!	!	!	!	!	!	!	!LO:TX:a:t=-	!	!	!	!
8E-\J	8ee-\J 8e-\	.	8E-/	8E-\	nasz	.	.	8e-/	8e-\	nasz	.	.
!!LO:LB:g=original
=65	=65	=65	=65	=65	=65	=65	=65	=65	=65	=65	=65	=65
*^	*	*	*	*	*	*	*	*	*	*	*	*
[4.B-/	16D-\LL	[4.gg\ [4.ee-\ [4.b-\ [4.g\	.	[4.B-/	[4.D-\	.	.	.	[4.g/	[4.e-\	huf	.	.
.	16G\	.	.	.	.	.	.	.	.	.	.	.	.
.	16E-\	.	.	.	.	.	.	.	.	.	.	.	.
.	16D-\	.	.	.	.	.	.	.	.	.	.	.	.
.	16G\	.	.	.	.	.	.	.	.	.	.	.	.
.	16E-\JJ	.	.	.	.	.	.	.	.	.	.	.	.
!	!	!	!	!	!	!	!	!	!LO:TX:a:t=co	!	!	!	!
4B-/]	4D-\	8gg\]L 8ee-\] 8b-\] 8g\]	.	(8B-/L]	4D-\]	.	.	.	(<8g/L]	(8e-\L]	.	.	.
.	.	8ff\ 8g\	.	8G/J)	.	.	.	.	8f/J)	8B-\J)	.	.	.
8B-/	8E-\ 8D-\	8ee-\J 8b-\ 8g\	.	8G/	8D-\	nasz	.	.	8e-/	8B-\	zwy-	.	.
*v	*v	*	*	*	*	*	*	*	*	*	*	*	*
=66	=66	=66	=66	=66	=66	=66	=66	=66	=66	=66	=66	=66
8.A-\L 8.C\	8aa-\ 8ee-\ 8a-\	.	(8.A-/L	8.C\L	huf	.	.	8a-/	8e-\	-cię-	.	.
!	!	!	!	!	!	!	!	!LO:TX:a:t=a	!	!	!	!
.	[4ee-\ [4e-\	.	.	.	.	.	.	8e-/	8e-\	-ża	.	.
16B-\K 16E-\	.	.	16B-/Jk)	16E-\Jk	.	.	.	.	.	.	.	.
8c\J 8A-\	.	.	8c/	8A-\	zwy-	.	.	8r	4.ryy	.	.	.
(8B-\L (8E-\	8.ee-\]L 8.e-\]	.	8B-/	8E-\	-cię-	.	.	4r	.	.	.	.
8A-\ 8C\))	.	.	8A-/	8C\	-ża,	.	.	.	.	.	.	.
.	16aa-\K 16a-\	.	.	.	.	.	.	.	.	.	.	.
!	!	!	!	!	!	!	!	!LO:TX:a:t=- cel	!	!	!	!
8A-\J 8AA-\	8ee-\J 8cc\ 8e-\	.	8G/	8AA-\	ach	.	.	8e-/	8c\	zwy-	.	.
=67	=67	=67	=67	=67	=67	=67	=67	=67	=67	=67	=67	=67
8.F\L 8.AA-\	8ff\ 8cc\ 8f\	.	(8.F/	8.AA-\	patrz	.	.	8f/	8c\	-cię-	.	.
.	[4cc\ [4c\	.	.	.	.	.	.	8c/	8c\	-ża!	.	.
16G\K 16C\	.	.	16G/)	16C\	jak	.	.	.	.	.	.	.
8A-\J 8F\	.	.	8A-/	8F\	w od-	.	.	8r	8ryy	.	.	.
(8G\L (8C\	8.cc\]L 8.c\]	.	8G/	8C\	-da-	.	.	8c/	8c\	nasz	.	.
8F\ 8AA-\))	.	.	8F/	8AA-\	-li	.	.	8c/	8c\	huf	.	.
.	16ff\K 16f\	.	.	.	.	.	.	.	.	.	.	.
8F\J 8FF\	8cc\J 8a-\ 8c\	.	8F/	8F\	nasz	.	.	8c/	8A-\	zwy-	.	.
=68	=68	=68	=68	=68	=68	=68	=68	=68	=68	=68	=68	=68
8.D-\L 8.FF\	8dd-\ 8a-\ 8d-\	.	(8.d-/L	(8.F\L	huf	.	.	8d-/	8A-\	-cię-	.	.
!	!	!	!	!	!	!	!	!LO:TX:a:t=le	!	!	!	!
.	[4a-/ [4A-/	.	.	.	.	.	.	8A-/	8A-\	-ża!	.	.
16E-\K 16AA-\	.	.	16e-/Jk)	16A-\Jk)	.	.	.	.	.	.	.	.
8F\J 8D-\	.	.	8f/	8d-\	zwy-	.	.	8r	2ryy	.	.	.
(8E-\L (8AA-\	8.a-\]L 8.A-\]	.	8e-/	8A-\	-cię-	.	.	4r	.	.	.	.
8D-\ 8FF\))	.	.	8d-/	8F\	-ża,	.	.	.	.	.	.	.
.	16dd-\K 16d-\	.	.	.	.	.	.	.	.	.	.	.
8D-\J 8DD-\	8a-\J 8f\ 8A-\	.	8F/	8D-\	więc	.	.	8A-/ 8F/	.	Więc	.	.
!!LO:LB:g=original
=69	=69	=69	=69	=69	=69	=69	=69	=69	=69	=69	=69	=69
*^	*	*	*	*	*	*	*	*	*	*	*	*
*	*	*^	*	*	*	*	*	*	*	*	*	*	*
*	*	*	*^	*	*	*	*	*	*	*	*	*	*	*
.	8qDD-/	.	.	.	.	.	.	.	.	.	.	.	.	.	.
16F/LL	[4.D-\	[2.b-/	16f\LL	[2.B-\	.	[4.F/	[2.D-\	wstań	.	.	[2.B-/	[4.F\	wstań!	.	.
16F/	.	.	16f\	.	.	.	.	.	.	.	.	.	.	.	.
16F/	.	.	16f\	.	.	.	.	.	.	.	.	.	.	.	.
16F/J	.	.	16f\J	.	.	.	.	.	.	.	.	.	.	.	.
8F/J	.	.	8f\J	.	.	.	.	.	.	.	.	.	.	.	.
4F/	16D-\LL]	.	4f\	.	.	4F/]	.	.	.	.	.	4F\]	.	.	.
.	16D-\	.	.	.	.	.	.	.	.	.	.	.	.	.	.
.	16D-\	.	.	.	.	.	.	.	.	.	.	.	.	.	.
.	16D-\J	.	.	.	.	.	.	.	.	.	.	.	.	.	.
8F/	8D-\J	.	8a-\	.	.	8F/	.	.	.	.	.	8A-\	ach	.	.
*	*	*v	*v	*	*	*	*	*	*	*	*	*	*	*	*
*v	*v	*	*	*	*	*	*	*	*	*	*	*	*	*
=70	=70	=70	=70	=70	=70	=70	=70	=70	=70	=70	=70	=70	=70
(16G\LL 16GG\	4.b-/_ [>4.g/	[4.f\ 4.B-\_	.	[4.F/	4.D-\_	.	.	<	4.B-/_	[4.G\	wstań,	.	.
16F\ 16FF\)	.	.	.	.	.	.	.	.	.	.	.	.	.
16D-\ 16DD-\	.	.	.	.	.	.	.	.	.	.	.	.	.
16G\ 16GG\	.	.	.	.	.	.	.	.	.	.	.	.	.
16F\ 16FF\	.	.	.	.	.	.	.	.	.	.	.	.	.
16D-\JJ 16DD-\	.	.	.	.	.	.	.	.	.	.	.	.	.
(8G\L 8GG\	4b-/] 4g/]	(8f\]L 8B-\]	.	8F/L]	4D-\]	.	.	.	4B-/]	4G\]	.	.	.
8D-\ 8DD-\)	.	8en\)	.	8En/J	.	.	.	.	.	.	.	.	.
8D-\J 8DD-\	8b-/	8f\J 8B-\	.	8F/	8D-\	więc	.	.	8B-/ 8G/	8G\	więc	.	.
=71	=71	=71	=71	=71	=71	=71	=71	=71	=71	=71	=71	=71	=71
*^	*	*	*	*	*	*	*	*	*	*	*	*	*
*	*	*	*^	*	*	*	*	*	*	*	*	*	*	*
.	8qDD-/	.	.	.	.	.	.	.	.	.	.	.	.	.	.
16F/LL	[4.D-\	[2.bn/	16f\LL	[2.Bn\	.	[4.F/	[2.D-\	wstań	.	.	[2.Bn/	[4.F\	wstań	.	.
16F/	.	.	16f\	.	.	.	.	.	.	.	.	.	.	.	.
16F/	.	.	16f\	.	.	.	.	.	.	.	.	.	.	.	.
16F/J	.	.	16f\J	.	.	.	.	.	.	.	.	.	.	.	.
8F/J	.	.	8f\J	.	.	.	.	.	.	.	.	.	.	.	.
4F/	16D-\LL]	.	4f\	.	.	4F/]	.	.	.	.	.	4F\]	.	.	.
.	16D-\	.	.	.	.	.	.	.	.	.	.	.	.	.	.
.	16D-\	.	.	.	.	.	.	.	.	.	.	.	.	.	.
.	16D-\J	.	.	.	.	.	.	.	.	.	.	.	.	.	.
8F/	8D-\J	.	8a-\	.	.	8F/	.	.	.	.	.	8G\	ach	.	.
*	*	*v	*v	*	*	*	*	*	*	*	*	*	*	*	*
*v	*v	*	*	*	*	*	*	*	*	*	*	*	*	*
=72	=72	=72	=72	=72	=72	=72	=72	=72	=72	=72	=72	=72	=72
(16G\LL 16GG\	4.b/_ [4.g/	[4.f\ 4.B\_	.	[4.F/	4.D-\_	.	.	.	4.B/_	[4.G\	wstań	.	.
16F\ 16FF\)	.	.	.	.	.	.	.	.	.	.	.	.	.
16D-\ 16DD-\	.	.	.	.	.	.	.	.	.	.	.	.	.
16G\ 16GG\	.	.	.	.	.	.	.	.	.	.	.	.	.
16F\ 16FF\	.	.	.	.	.	.	.	.	.	.	.	.	.
16D-\JJ 16DD-\	.	.	.	.	.	.	.	.	.	.	.	.	.
!	!LO:TX:t=P:problem=końcówka taktu skreślona	!	!	!	!	!	!	!	!	!	!	!	!
(8G\L 8GG\	4b/] 4g/]	(8f\]L 8B\]	.	(8Fn/L]	4D-\]	.	.	.	4B/]	4G\]	.	.	.
8D-\ 8DD-\)	.	8en\)	.	8En/J)	.	.	.	.	.	.	.	.	.
8D-\J 8DD-\	8bn/	8f\J 8Bn\	.	8F/	8D-\	.	.	.	8Bn/	8G\	więc	.	.
*	*v	*v	*	*	*	*	*	*	*	*	*	*	*
=73	=73	=73	=73	=73	=73	=73	=73	=73	=73	=73	=73	=73
4C\ 4CC\	([4cc\ 4a-\ 4f\ [4c\	.	(4F/	4C\	.	.	[	[4.c/	(4A-\	wstań	.	f
(8BB-/ 8BBB-/	8g/	.	8G/	8BB-\	.	.	.	.	8G\	więc	.	.
4AA-/ 4AAA-/	8cc\]L 8f\ 8c\]	.	4F/	4AA-\	.	.	.	8c/]	8F\	wstań	.	.
.	8Bn\	.	.	.	.	.	.	8Bn/	8F\)	to-	.	.
8GG/ 8GGG/)	8cc\J 8bn\ 8an\ 8en\ 8c\	.	8En/	8GG\	.	.	.	8c/	8B-X\	-wa-	.	.
=74	=74	=74	=74	=74	=74	=74	=74	=74	=74	=74	=74	=74
(4.FF/ (4.FFF/	(4.ff\ 4.cc\ 4.a-\ (4.f\	.	[4.F/)	4.FF\	.	.	.	4.f/	(4.A-\	-rzy-	.	.
4AA-/ 4AAA-/))	4cc\ 4f\ 4c\))	.	4F/]	4AA-\	.	.	.	4c/	4F\)	-szy	.	.
8FF/ 8FFF/	8cc\ 8a-\ 8f\ 8c\)	.	8F/	8FF\	.	.	.	8c/	8A-\	więc	.	.
!!LO:PB:g=original
=75	=75	=75	=75	=75	=75	=75	=75	=75	=75	=75	=75	=75
*^	*	*	*	*	*	*	*	*	*	*	*	*
([4.A-/	[2.F\ [2.BB-\	(32d-\LLL	.	[2.F/	[2.BB-\	wstań	.	.	[2.d-/	[4.A-\	wstań	.	.
.	.	32dd-\	.	.	.	.	.	.	.	.	.	.	.
.	.	32d-\	.	.	.	.	.	.	.	.	.	.	.
.	.	32dd-\	.	.	.	.	.	.	.	.	.	.	.
.	.	32d-\	.	.	.	.	.	.	.	.	.	.	.
.	.	32dd-\	.	.	.	.	.	.	.	.	.	.	.
.	.	32d-\	.	.	.	.	.	.	.	.	.	.	.
.	.	32dd-\	.	.	.	.	.	.	.	.	.	.	.
.	.	32d-\	.	.	.	.	.	.	.	.	.	.	.
.	.	32dd-\	.	.	.	.	.	.	.	.	.	.	.
.	.	32d-\	.	.	.	.	.	.	.	.	.	.	.
.	.	32dd-\JJJ	.	.	.	.	.	.	.	.	.	.	.
8A-/L]	.	[4.ddd-\ [4.dd-\)	.	.	.	.	.	.	.	8A-\]	.	.	.
8G/	.	.	.	.	.	.	.	.	.	8G\	to-	.	.
8A-/J	.	.	.	.	.	.	.	.	.	8A-\	-wa-	.	.
=76	=76	=76	=76	=76	=76	=76	=76	=76	=76	=76	=76	=76	=76
(4.d-/	4.F\_ 4.BB-\_	4ddd-\] 4dd-\]	.	4.F/_	4.BB-\_	.	.	.	4.d-/]	4.d-\	-rzy-	.	.
.	.	(8dd-\ 8d-\	.	.	.	.	.	.	.	.	.	.	.
4A-/))	4F\] 4BB-\]	4ddd-\ 4dd-\)	.	4F/]	4BB-\]	.	.	.	4d-/	4A-\	-szu	.	.
8B-/	8F\ 8AA-\	8dd-\ 8d-\	.	8F/	8AA-\	ach	.	.	8d-/	8B-\	je-	.	.
=77	=77	=77	=77	=77	=77	=77	=77	=77	=77	=77	=77	=77	=77
*	*^	*	*	*	*	*	*	*	*	*	*	*	*
(4.F/	[2.B-/	[2.GG\	(32d-\LLL	.	[4.F/	[2.GG\	wstań	.	.	[2.d-/	[2.B-\	-dy-	.	.
.	.	.	32dd-\	.	.	.	.	.	.	.	.	.	.	.
.	.	.	32d-\	.	.	.	.	.	.	.	.	.	.	.
.	.	.	32dd-\	.	.	.	.	.	.	.	.	.	.	.
.	.	.	32d-\	.	.	.	.	.	.	.	.	.	.	.
.	.	.	32dd-\	.	.	.	.	.	.	.	.	.	.	.
.	.	.	32d-\	.	.	.	.	.	.	.	.	.	.	.
.	.	.	32dd-\	.	.	.	.	.	.	.	.	.	.	.
.	.	.	32d-\	.	.	.	.	.	.	.	.	.	.	.
.	.	.	32dd-\	.	.	.	.	.	.	.	.	.	.	.
.	.	.	32d-\	.	.	.	.	.	.	.	.	.	.	.
.	.	.	32dd-\JJJ)	.	.	.	.	.	.	.	.	.	.	.
8F/L	.	.	[4.ddd-\ [4.dd-\	.	8F/]	.	.	.	.	.	.	.	.	.
8En/	.	.	.	.	8En/	.	to-	.	.	.	.	.	.	.
8F/J	.	.	.	.	8F/	.	-wa-	.	.	.	.	.	.	.
*	*v	*v	*	*	*	*	*	*	*	*	*	*	*	*
=78	=78	=78	=78	=78	=78	=78	=78	=78	=78	=78	=78	=78	=78
4.GG\]	(4.B-/])	4ddd-\] 4dd-\]	.	4.B-/	4.GG\_	-rzy-	.	.	4.d-/_	4.B-\]	.	.	.
.	.	(8dd-\ 8d-\	.	.	.	.	.	.	.	.	.	.	.
4F\ 4GG\	4F/)	4ddd-\ 4dd-\)	.	4F/	4GG\]	-szu	.	.	4d-/]	4B-\	-ny	.	.
8GG\	8F/ 8GG/	8dd-\ 8d-\	.	8F/	8GG\	ach	.	.	8d-/	8B-\	je-	.	.
=79	=79	=79	=79	=79	=79	=79	=79	=79	=79	=79	=79	=79	=79
[2.B-/ [2.En/	([4.GG\	(32c\LLL	.	[2.En/	[4.GG\	wstań	.	.	[2.c/	[2.B-\	-dy-	.	.
.	.	32cc\	.	.	.	.	.	.	.	.	.	.	.
.	.	32c\	.	.	.	.	.	.	.	.	.	.	.
.	.	32cc\	.	.	.	.	.	.	.	.	.	.	.
.	.	32c\	.	.	.	.	.	.	.	.	.	.	.
.	.	32cc\	.	.	.	.	.	.	.	.	.	.	.
.	.	32c\	.	.	.	.	.	.	.	.	.	.	.
.	.	32cc\	.	.	.	.	.	.	.	.	.	.	.
.	.	32c\	.	.	.	.	.	.	.	.	.	.	.
.	.	32cc\	.	.	.	.	.	.	.	.	.	.	.
.	.	32c\	.	.	.	.	.	.	.	.	.	.	.
.	.	32cc\JJJ)	.	.	.	.	.	.	.	.	.	.	.
.	8GG\L]	[4.ccc\ [4.cc\	.	.	8GG\]	.	.	.	.	.	.	.	.
.	8FF#X\	.	.	.	8FF#X\	to-	.	.	.	.	.	.	.
.	8GG\J)	.	.	.	8GG\	-wa-	.	.	.	.	.	.	.
=80	=80	=80	=80	=80	=80	=80	=80	=80	=80	=80	=80	=80	=80
4.B-/_ 4.E/_	4.C\	4ccc\] 4cc\]	.	4.E/_	4.C\	-rzy-	.	.	4.c/_	4.B-\_	.	.	.
.	.	(8cc\ (8c\	.	.	.	.	.	.	.	.	.	.	.
4B-/] 4E/]	4GG\	4ccc\ 4cc\))	.	4E/]	4GG\	-szu	.	.	4c/]	4B-\]	-ny	.	.
8B-/	8B-\ 8F\ 8GG\	8ddd-\ 8dd-\	.	8F/	8GG\	.	.	.	8d-/	8B-\	ach	.	.
*v	*v	*	*	*	*	*	*	*	*	*	*	*	*
!!LO:LB:g=original
=81	=81	=81	=81	=81	=81	=81	=81	=81	=81	=81	=81	=81
([4.B-\ [4.En\ 4.GG\	4ccc\ 4cc\	.	[4.En/	(4.GG\	.	.	.	[4.c/	[4.B-\	wstań!	.	.
.	(8cc/ (8c/	.	.	.	.	.	.	.	.	.	.	.
4B-\] 4E\] 4C\)	4ccc\ 4cc\))	<	4E/]	4C\)	.	.	.	4c/]	4B-\]	.	.	.
8B-\ 8F\ 8GG\	8ddd-\ 8dd-\	.	8F/	8GG\	.	.	.	8d-/	8d-\ 8B-\	ach	.	<
=82	=82	=82	=82	=82	=82	=82	=82	=82	=82	=82	=82	=82
([4.B-\ [4.En\ 4.GG\	4ccc\ 4cc\	.	[4.En/	(4.GG\	.	.	.	[4.c/	[4.B-\	wstań!	.	.
.	(8cc/ 8c/	.	.	.	.	.	.	.	.	.	.	.
4B-\] 4E\] 4C\)	4ccc\ 4cc\)	.	4E/]	4C\)	.	.	.	4c/]	4B-\]	.	.	.
8B-\ 8F\ 8GG\	8ddd-\ 8dd-\	.	8F/	8GG\	.	.	.	8d-/	8B-\	ach	.	.
=83	=83	=83	=83	=83	=83	=83	=83	=83	=83	=83	=83	=83
*	*^	*	*	*	*	*	*	*	*	*	*	*
!	!LO:TX:t=P:problem=brakujące jedno c	!	!	!	!	!	!	!	!	!	!	!	!
(2.B-\ 2.En\ (2.GG\	(32cc\LLL	16c\LLyy	.	(2.En/	(2.GG\	.	.	.	[2.c/	(2.B-\	wstań	.	.
.	32ccc\	.	.	.	.	.	.	.	.	.	.	.	.
.	32cc\	16c\	.	.	.	.	.	.	.	.	.	.	.
.	32ccc\	.	.	.	.	.	.	.	.	.	.	.	.
.	32cc\	16c\	.	.	.	.	.	.	.	.	.	.	.
.	32ccc\	.	.	.	.	.	.	.	.	.	.	.	.
.	32cc\	16c\	.	.	.	.	.	.	.	.	.	.	.
.	32ccc\	.	.	.	.	.	.	.	.	.	.	.	.
.	32cc\	16c\	.	.	.	.	.	.	.	.	.	.	.
.	32ccc\	.	.	.	.	.	.	.	.	.	.	.	.
.	32cc\	[16en\JJ 16c\	.	.	.	.	.	.	.	.	.	.	.
.	32ccc\	.	.	.	.	.	.	.	.	.	.	.	.
.	32cc\	16e\]LL 16c\	.	.	.	.	.	.	.	.	.	.	.
.	32ccc\	.	.	.	.	.	.	.	.	.	.	.	.
.	32cc\	16e\ 16c\	.	.	.	.	.	.	.	.	.	.	.
.	32ccc\	.	.	.	.	.	.	.	.	.	.	.	.
.	32cc\	16g\ 16e\	.	.	.	.	.	.	.	.	.	.	.
.	32ccc\	.	.	.	.	.	.	.	.	.	.	.	.
.	32cc\	16g\J 16e\	.	.	.	.	.	.	.	.	.	.	.
.	32ccc\	.	.	.	.	.	.	.	.	.	.	.	.
.	32cc\	8cc\J 8e\	.	.	.	.	.	.	.	.	.	.	.
.	32ccc\	.	.	.	.	.	.	.	.	.	.	.	.
.	32cc\	.	.	.	.	.	.	.	.	.	.	.	.
.	32ccc\JJJ)	.	.	.	.	.	.	.	.	.	.	.	.
*	*v	*v	*	*	*	*	*	*	*	*	*	*	*
=84	=84	=84	=84	=84	=84	=84	=84	=84	=84	=84	=84	=84
(4.c\ 4.A-\ [4.F\ 4.FF\))	(4.ccc\ (4.cc\	.	[4.F/)	[4.FF\)	.	.	.	(4.c/]	[4.A-\)	.	.	.
.	4qqa-\ 4qqf\	.	.	.	.	.	.	.	.	.	.	.
4A-\ 4F\] 4FF\)	4fff\ 4ff\))	.	4F/] 4FF/	4FF\]	.	.	.	4f/)	4A-\]	.	.	.
8B-\ 8F\ 8GG\	8ddd-\ 8dd-\	[ <	8F/	8GG\	.	.	.	8d-/	8B-\	ach	.	[
=85	=85	=85	=85	=85	=85	=85	=85	=85	=85	=85	=85	=85
2.B-\ 2.En\ 2.GG\	(32dd-\LLL	.	[2.En/ 2.GG/	(2.GG\	.	.	.	(2.d-/	[2.B-\	wstań!	.	>
.	32ddd-\	.	.	.	.	.	.	.	.	.	.	.
.	32dd-\	.	.	.	.	.	.	.	.	.	.	.
.	32ddd-\	.	.	.	.	.	.	.	.	.	.	.
.	32dd-\	.	.	.	.	.	.	.	.	.	.	.
.	32ddd-\	.	.	.	.	.	.	.	.	.	.	.
.	32dd-\	.	.	.	.	.	.	.	.	.	.	.
.	32ddd-\	.	.	.	.	.	.	.	.	.	.	.
.	32dd-\	.	.	.	.	.	.	.	.	.	.	.
.	32ddd-\	.	.	.	.	.	.	.	.	.	.	.
.	32dd-\	.	.	.	.	.	.	.	.	.	.	.
.	32ddd-\JJJ	.	.	.	.	.	.	.	.	.	.	.
.	4dd-\	.	.	.	.	.	.	.	.	.	.	.
.	8dd-\ 8d-\)	.	.	.	.	.	.	.	.	.	.	.
=86	=86	=86	=86	=86	=86	=86	=86	=86	=86	=86	=86	=86
8B-\L 8E-\ 8C\	8cc\L 8c\	.	8E/]	8C\)	.	.	.	8c/)	8B-\]	.	.	.
8C\	8c\	[ p	8r	2ryy	.	.	.	8r	2ryy	.	.	]
8C\ 8BBn\	8d-\ 8c\	.	8r	.	.	.	.	8r	.	.	.	.
8C\ 8BB-X\	8dn\ 8c\	<	4r	.	.	.	.	4r	.	.	.	.
8C\ 8AA-\	8e-\ 8c\	.	.	.	.	.	.	.	.	.	.	.
8En\J 8C\ 8GG\	8cc\J 8en\ 8c\	[[	8En/	8C\	.	.	.	8c/	8c\	Tak	.	p
!!LO:LB:g=original
=87	=87	=87	=87	=87	=87	=87	=87	=87	=87	=87	=87	=87
[2.F\ [2.FF\	4a-/ 4f/ 4c/	.	4C/	4FF\	.	.	.	4A-/	4F\	po-	.	.
.	8g/ 8c/ 8B-/	.	8C/	8BB-\	.	.	.	8G/	8C\	-nad	.	.
.	4f/ 4c/ 4A-/	.	4C/	4AA-\	.	.	.	4F/	4C\	gro-	.	.
.	8g/ 8c/ 8B-/	<	8C/	8GG\	.	.	.	8G/	8En\	-bem	.	.
=88	=88	=88	=88	=88	=88	=88	=88	=88	=88	=88	=88	=88
4.F\_ 4.FF\_	(8.a-\L 8.f\ 8.c\	.	8.C/	8.FF\	.	.	.	8.A-/	8.F\	wia-	.	.
.	16b-\K 16f\ 16d-\	.	16D-/	16FF\	.	.	.	16B-/	16F\	-rus	.	.
.	8cc\J 8a-\ 8f\)	.	8F/	8FF\	.	.	.	8c/	8A-\	po-	.	.
4F\] 4FF\]	(8ff\L 8cc\ 8a-\	.	8A-/	8F\	.	.	.	8f/	8c\	-chy-	.	.
.	8cc\ 8a-\ 8f\)	[	8F/	8FF\	.	.	.	8c/	8A-\	-ły,	.	.
8A-\ 8AA-\	8cc\J 8f\ 8c\	.	8r	8ryy	.	.	.	8r	8ryy	.	.	.
=89	=89	=89	=89	=89	=89	=89	=89	=89	=89	=89	=89	=89
*	*^	*	*	*	*	*	*	*	*	*	*	*
(8.B-\L 8.BB-\	(8.b-\L 8.f\ 8.d-\	4.ryy	.	8.D-/	8.BB-\	.	.	.	8.B-/	8.F\	słu-	.	f
16F\K 16FF\	16a-\K 16f\ 16c\	.	.	16C/	16FF\	.	.	.	16A-/	16F\	-cha	.	.
8B-\J 8BB-\)	8b-\J 8f\ 8d-\)	.	.	8D-/	8BB-\	.	.	.	8B-/	8F\	kul	.	.
(8.A-\L 8.AA-\	[4cc/	8.cc\L 8.f\ 8.c\	.	8C/	8AA-\	.	.	.	8c/	8F\	swis-	.	.
.	.	.	.	8C/	8AA-\	.	.	.	8c/	8F\	-tu	.	.
16F\K 16FF\)	.	16a-\K 16f\ 16c\	.	.	.	.	.	.	.	.	.	.	.
8A-\J 8AA-\	8cc/]	8cc\J 8f\ 8c\	.	8r	8ryy	.	.	.	8r	8ryy	.	.	.
=90	=90	=90	=90	=90	=90	=90	=90	=90	=90	=90	=90	=90	=90
(8.B-\L 8.BB-\	(8.b-\L 8.f\ 8.d-\	4.ryy	p	8.D-/	8.BB-\	.	.	.	8.B-/	8.F\	słu-	.	p
16F\K 16FF\	16a-\K 16f\ 16c\	.	.	16C/	16FF\	.	.	.	16A-/	16F\	-cha	.	.
8B-\J 8BB-\)	8b-\J 8f\ 8d-\)	.	.	8D-/	8BB-\	.	.	.	8B-/	8F\	z da-	.	.
(8.A-\L 8.AA-\	[4cc/	(8.cc\L 8.f\ 8.c\	.	8.C/	8.AA-\	.	.	.	8.c/	8.F\	-le-	.	.
16G\K 16GG\)	.	16b-\Jk 16en\)	.	16En/	16GG\	.	.	.	16c/	16B-\	-ka,	.	.
8C\J 8CC\	8cc/]	8cc\ 8e\ 8c\	.	8C/	8C\	.	.	.	8c/	8En\	i	.	.
*	*v	*v	*	*	*	*	*	*	*	*	*	*	*
*	*	*	*v	*v	*	*	*	*	*	*	*	*
!!LO:LB:g=original
=91	=91	=91	=91	=91	=91	=91	=91	=91	=91	=91	=91
(2.F\ (2.FF\	(4a-/ 4f/ 4c/	.	4C/ 4FF/	.	.	.	4A-/	4F\	sta-	.	.
.	8g/ 8c/ 8B-/	.	8C/ 8BB-/	.	.	.	8G/	8C\	-rą	.	.
.	4f/ 4c/ 4A-/	.	8.C/ 8.AA-/	.	.	.	8.F/	8.C\	sza-	.	.
.	.	.	16C/ 16AA-/	.	.	.	16F/	16C\	-blę	.	.
.	8g/ 8c/ 8B-/	.	8C/ 8GG/	.	.	.	8G/	8En\	u	.	.
=92	=92	=92	=92	=92	=92	=92	=92	=92	=92	=92	=92
*	*	*	*^	*	*	*	*	*	*	*	*
4.f\ 4.F\))	8.a-\L 8.f\ 8.c'\	.	(8.C/L	4FF\	.	.	.	(<8.A-/L	4F\	stóp	.	.
.	16b-\K 16f\ 16d-'\	<	16D-/Jk)	.	.	.	.	16B-/Jk)	.	.	.	.
.	8cc\J 8a-\ 8f'\)	.	8F/	8FF\	.	.	.	8c/	8A-\	mo-	.	.
(8F\L (8FF\	(8ff\L 8cc\ 8a-\	.	8A-/	8F\	.	.	.	8f/	8c\	-gi-	.	.
8E-\ 8EE-\))	8cc\ 8a-\ 8f\)	.	8A-/	8E-\	.	.	.	8c/	8F\	-ły,	.	.
16r	16r	.	16r	16ryy	.	.	.	16r	16ryy	.	.	.
16D-\Jk 16DD-\	16ff\Jk 16b-\ 16f\	[[	16A-/	16A-\ 16D-\	.	.	.	16f/	16Bn\	ze	.	.
=93	=93	=93	=93	=93	=93	=93	=93	=93	=93	=93	=93	=93
*^	*	*	*	*	*	*	*	*	*	*	*	*
16C/LL	16CC\LL	([4.aa-\ [4.ff\ [4.cc\ [4.a-\	f	[4.c/	[2.C\	skru-	.	.	[4.a-/	[4.f\	skru-	.	f
16EE-/	16EE-\	.	.	.	.	.	.	.	.	.	.	.	.
16AA-/	16AA-\	.	.	.	.	.	.	.	.	.	.	.	.
16C/	16C\ 16CC\	.	.	.	.	.	.	.	.	.	.	.	.
16F/	16F\ 16FF\	.	.	.	.	.	.	.	.	.	.	.	.
16A-/JJ	16A-\JJ 16AA-\	.	.	.	.	.	.	.	.	.	.	.	.
8.c\L 8.C\	4.ryy	8aa-\]L 8ff\] 8cc\] 8a-\]	.	(8c/L]	.	.	.	.	(8a-/L]	(8f\L]	.	.	.
.	.	8gg\ 8cc\ 8b-\ 8g\	.	8B-/J)	.	.	.	.	8g/J)	8c\J)	.	.	.
16C\K 16CC\	.	.	.	.	.	.	.	.	.	.	.	.	.
8C\J 8CC\	.	8ff\J 8cc\ 8a-\ 8f\	.	8A-/	.	.	.	.	8f/	8c\	-chą	.	.
*v	*v	*	*	*	*	*	*	*	*	*	*	*	*
=94	=94	=94	=94	=94	=94	=94	=94	=94	=94	=94	=94	=94
[4.C/ [4.CC/	4.ee-\ 4.b-\ 4.g\	.	4.G/	4.C\]	.	.	.	4.e-/	4.B-\	skła-	.	.
4C/] 4CC/]	4dd-\ 4a-\ 4f\)	.	4F/	4C\	-chą,	.	.	4d-/	4A-\	-da,	.	.
8C/ 8CC/	8cc\ 8a-\ 8f\	.	8F/	8C\	ze	.	.	8c/	8A-\	ze	.	.
!!LO:PB:g=original
=95	=95	=95	=95	=95	=95	=95	=95	=95	=95	=95	=95	=95
*^	*	*	*	*	*	*	*	*	*	*	*	*
((16D-/LL	8.DD-\L	([4.ff\ [4.a-\ [4.f\	p	[4.F/	[4.D-\	.	.	.	[4.f/	[4.A-\	skru-	.	p
16FF/	.	.	.	.	.	.	.	.	.	.	.	.	.
16AA-/	.	.	.	.	.	.	.	.	.	.	.	.	.
16D-/	16DD-\L	.	.	.	.	.	.	.	.	.	.	.	.
16F/	16FF\	.	.	.	.	.	.	.	.	.	.	.	.
16A-/JJ)	16AA-\JJ	.	.	.	.	.	.	.	.	.	.	.	.
8d-\L 8D-\	4.ryy	8ff\]L 8a-\] 8f\]	.	4F/]	(8D-\L]	.	.	.	(8f/L]	4A-\]	.	.	.
8C\ 8CC\	.	8ee-\ 8a-\ 8f\	.	.	8C\J)	.	.	.	8e-/J)	.	.	.	.
8BB-\J 8BBB-\	.	8dd-\J 8b-\ 8f\	.	8F/	8BB-\	.	.	.	8d-/	8B-\	-chą	.	.
*v	*v	*	*	*	*	*	*	*	*	*	*	*	*
=96	=96	=96	=96	=96	=96	=96	=96	=96	=96	=96	=96	=96
4.AA-/ 4.AAA-/	4.cc\ 4.f\ 4.c\	.	4.F/	4.AA-\	.	.	.	4.c/	4.c\	skła-	.	.
4GG/ 4GGG/)	4b-\ 4en\ 4c\)	.	4C/	4GG\	.	.	.	4B-/	4En\	-da	.	.
8FF/ 8FFF/	8a-/ 8f/ 8c/	.	8C/	8FF\	.	.	.	8A-/	8F\	i	.	.
=97	=97	=97	=97	=97	=97	=97	=97	=97	=97	=97	=97	=97
*^	*^	*	*	*	*	*	*	*	*	*	*	*
16BB-/LL	8.BBB-\L	8.dd-/L	2.f\ 2.d-\	f	[2.D-/	[2.BB-\	.	.	.	[2.A-/	[2.F\	cze-	.	f
16DD-/	.	.	.	.	.	.	.	.	.	.	.	.	.	.
16FF/	.	.	.	.	.	.	.	.	.	.	.	.	.	.
16BB-/	16BBB-\L	16dd-/K	.	.	.	.	.	.	.	.	.	.	.	.
16D-/	16DD-\	[8dd-/J	.	.	.	.	.	.	.	.	.	.	.	.
16F/JJ	16FF\JJ	.	.	.	.	.	.	.	.	.	.	.	.	.
(8.B-\L 8.BB-\	4.ryy	8dd-/L]	.	.	.	.	.	.	.	.	.	.	.	.
.	.	8a-/	.	.	.	.	.	.	.	.	.	.	.	.
16BB-\K 16BBB-\	.	.	.	.	.	.	.	.	.	.	.	.	.	.
8BB-\J 8BBB-\)	.	8f/J	.	.	.	.	.	.	.	.	.	.	.	.
*v	*v	*	*	*	*	*	*	*	*	*	*	*	*	*
*	*v	*v	*	*	*	*	*	*	*	*	*	*	*
=98	=98	=98	=98	=98	=98	=98	=98	=98	=98	=98	=98	=98
[4.BB-/ [4.BBB-/	(4.a-/ [4.f/ [4.d-/ 4.A-/	.	4.D-/]	4.BB-\]	.	.	.	4.A-/]	4.F\]	.	.	.
8BB-/] 8BBB-/]	8g/ 8f/] 8d-/] 8G/)	.	8D-/	8BB-\	.	.	.	8G/	8F\	-ka	.	.
8r	8r	.	8r	8ryy	.	.	.	8r	8ryy	.	.	.
8BB-/ 8BBB-/	8a-/ 8f/ 8d-/	.	8D-/	8BB-\	.	.	.	8A-/	8F\	i	.	.
*	*	*	*	*	*	*	*	*v	*v	*	*	*
!!LO:LB:g=original
=99	=99	=99	=99	=99	=99	=99	=99	=99	=99	=99	=99
*^	*^	*	*	*	*	*	*	*	*	*	*
16BBn/LL 16BBBn/	16BBB\LL	8.a-/L	2.f\ 2.dn\	p	[2.Dn/	[2.BBn\	.	.	.	[2.A-/ [2.F/	cze-	.	pp
16DD-/	16DD-\	.	.	.	.	.	.	.	.	.	.	.	.
16FF/	16FF\	.	.	.	.	.	.	.	.	.	.	.	.
16BB/	16BBBn\	16ddn/K	.	.	.	.	.	.	.	.	.	.	.
16Dn/ 16DD-/	16DD-\	[8dd/J	.	.	.	.	.	.	.	.	.	.	.
16F/JJ 16FF/	16FF\JJ	.	.	.	.	.	.	.	.	.	.	.	.
8.Bn\L 8.BB\	4.ryy	8dd/L]	.	.	.	.	.	.	.	.	.	.	.
.	.	8a-/	.	.	.	.	.	.	.	.	.	.	.
16BB\K 16BBB\	.	.	.	.	.	.	.	.	.	.	.	.	.
8BB\J 8BBB\	.	8f/J	.	.	.	.	.	.	.	.	.	.	.
*v	*v	*	*	*	*	*	*	*	*	*	*	*	*
*	*v	*v	*	*	*	*	*	*	*	*	*	*
=100	=100	=100	=100	=100	=100	=100	=100	=100	=100	=100	=100
*	*	*	*	*	*	*	*	*^	*	*	*
[4.BBn/ [4.BBBn/	(4.a-/ [4.f/ 4.d-/ 4.A-/	.	4.D/]	4.BB\]	.	.	.	4.A-/] 4.F/]	4.F\	.	.	.
8BB/] 8BBB/]	8g/ 8f/] 8d-/ 8G/)	.	8Dn/	8BBn\	.	.	.	8G/	8F\	-ka,	.	.
8r	8r	.	8r	8ryy	.	.	.	8r	8ryy	.	.	.
8BBn/ 8BBBn/	8a-/ 8f/ 8dn/ 8A-/	.	8D/	8BB\	.	.	.	8A-/	8F\	ze	.	.
=101	=101	=101	=101	=101	=101	=101	=101	=101	=101	=101	=101	=101
*^	*^	*	*	*	*	*	*	*	*	*	*	*
16C/LL	16CC\LL	8.a-/L	[2.f\ [2.c\	f	[2.C/	[2.C\	.	.	<	[2.A-/	[2.F\	skru-	.	f
16FF/	16FF\	.	.	.	.	.	.	.	.	.	.	.	.	.
16AA-/	16AA-\	.	.	.	.	.	.	.	.	.	.	.	.	.
16C/	16CC\	16cc/K	.	.	.	.	.	.	.	.	.	.	.	.
16F/	16FF\	[8cc/J	.	.	.	.	.	.	.	.	.	.	.	.
16A-/JJ	16AA-\JJ	.	.	.	.	.	.	.	.	.	.	.	.	.
8c/L	[4.C\	8cc/L]	.	.	.	.	.	.	.	.	.	.	.	.
8A-/	.	8a-/	.	.	.	.	.	.	.	.	.	.	.	.
8F/J	.	8f/J	.	.	.	.	.	.	.	.	.	.	.	.
*v	*v	*	*	*	*	*	*	*	*	*	*	*	*	*
*	*v	*v	*	*	*	*	*	*	*	*	*	*	*
=102	=102	=102	=102	=102	=102	=102	=102	=102	=102	=102	=102	=102
8.A-\L 8.C\]	8.a-/L 8.f/] 8.c/]	.	4C/]	4C\]	.	.	.	(8.A-/L]	(8.F\L]	.	.	.
16C\K 16CC\	16c/K	<	.	.	.	.	.	16C/Jk)	16C\Jk)	.	.	.
8Dn\J 8DDn\	8dn/J	.	8Dn/	8D\	.	.	.	8Dn/	8D\	-chą	.	.
8En\L 8EEn\	8en/L	.	8En/	8E\	.	.	.	8En/	8E\	skła-	.	.
8F\ 8FF\	8f/	.	8F/	8F\	.	.	.	8F/	8F\	-da	.	.
8A-\J 8AA-\	8a-/J	[[	8A-/	8A-\	.	.	.	8A-/	8A-\	i	.	.
!!LO:LB:g=original
=103	=103	=103	=103	=103	=103	=103	=103	=103	=103	=103	=103	=103
*^	*^	*	*	*	*	*	*	*	*	*	*	*
*	*^	*	*	*	*	*	*	*	*	*	*	*	*	*
[2.c/	8.r	[2.C\	(8.cc/L	[2.cc\	<	[2.c/	[2.c\	.	.	[ >	[2.c/	[2.c\	cze-	.	.
.	16cn/KL	.	16ddn/K	.	.	.	.	.	.	.	.	.	.	.	.
.	8B-X/J	.	8ee-/J	.	.	.	.	.	.	.	.	.	.	.	.
.	8An/L	.	(8een/L	.	.	.	.	.	.	.	.	.	.	.	.
.	8A-X/	.	8ff/	.	.	.	.	.	.	.	.	.	.	.	.
.	8F/J	.	8aa-/J	.	.	.	.	.	.	.	.	.	.	.	.
*v	*v	*v	*	*	*	*	*	*	*	*	*	*	*	*	*
*	*v	*v	*	*	*	*	*	*	*	*	*	*	*
=104	=104	=104	=104	=104	=104	=104	=104	=104	=104	=104	=104	=104
4.c\_ 4.C\_	4.ccc\ 4.cc\])	.	4.c/]	4.c\]	.	.	.	4.c/]	4.c\]	.	.	.
4c\] 4C\]	4g/ 4en/)	.	8En/	8C\	.	.	.	8G/	8G\	-ka,	.	.
.	.	.	8r	8ryy	.	.	]	8r	8r	.	.	.
8C/ 8CC/	8g#X/ 8e/ 8c/	[	8E/	8C\	.	.	.	8G#X/	8G#X\	i	.	p
=105	=105	=105	=105	=105	=105	=105	=105	=105	=105	=105	=105	=105
*	*^	*	*	*	*	*	*	*	*	*	*	*
(8.F\L 8.FF\	[2.an/ [2.f/ [2.c/	4r	.	[2.F/	[2.F\	.	.	.	(2.An/	(2.A\	cze-	.	.
16En\K 16EEn\	.	.	.	.	.	.	.	.	.	.	.	.	.
8Dn\J 8DDn\)	.	8r	.	.	.	.	.	.	.	.	.	.	.
!LO:TX:t=P:LO:N:vis=4:problem	!	!	!	!	!	!	!	!	!	!	!	!	!
[4.C\ [4.CC\	.	8aan/: 8ff/: 8cc/: 8an:/	.	.	.	.	.	.	.	.	.	.	.
.	.	8r	.	.	.	.	.	.	.	.	.	.	.
.	.	8r	.	.	.	.	.	.	.	.	.	.	.
=106	=106	=106	=106	=106	=106	=106	=106	=106	=106	=106	=106	=106	=106
(8.C/]L 8.CC/]	(4.cc/ 4.a/] 4.f/] ((4.c/]	4r	.	[4.An/	4.F\_	.	.	.	[2.c/)	[2.c\)	.	.	.
16BBn/K 16BBBn/	.	.	.	.	.	.	.	.	.	.	.	.	.
8BB-X/J 8BBB-X/)	.	8r	.	.	.	.	.	.	.	.	.	.	.
!	!LO:TX:a:t=Harfa	!	!	!	!	!	!	!	!	!	!	!	!
4AAn/ 4AAAn/	4cc/ 4an/ 4f/ 4c/	8ccc/: 8aan/: 8ff:/	.	4A/]	4F\]	.	.	.	.	.	.	.	.
.	.	8r	.	.	.	.	.	.	.	.	.	.	.
8GG/ 8GGG/	8cc/ 8g/ 8en/ 8c/))	8r	.	8B-/	8En\	.	.	.	.	.	.	.	.
*	*v	*v	*	*	*	*	*	*	*	*	*	*	*
=107	=107	=107	=107	=107	=107	=107	=107	=107	=107	=107	=107	=107
!LO:TX:t=P:problem=część taktu słabo widoczna	!	!	!	!	!	!	!	!	!	!	!	!
8FFF/	[4.cc/ 4.an/ [4.f/ [4.c/)	.	4.An/	4.F\	.	.	.	4.c/]	4.c\]	.	.	.
2ryy	.	.	.	.	.	.	.	.	.	.	.	.
.	4f/] 4c/] 4An/	.	8F/	8F\	.	.	.	8F/	8F\	-ka	.	.
.	.	.	8r	4ryy	.	.	.	8r	4ryy	.	.	.
!	!LO:TX:a:t=Harfa	!	!	!	!	!	!	!	!	!	!	!
8c\ 8An\ 8F\	8ccc\ 8aan\ 8ff\ 8cc\]	.	8r	.	.	.	.	8r	.	.	.	.
*	*	*	*v	*v	*	*	*	*	*	*	*	*
*	*	*	*	*	*	*	*v	*v	*	*	*
=108	=108	=108	=108	=108	=108	=108	=108	=108	=108	=108
[4.an\ [4.e-\ [4.c\ 4.F\	[4.fff\ [4.ccc\ [4.aan\ [4.ff\	.	2.r	.	.	.	2.r	.	.	.
8a\] 8e-\] 8c\] 8F\	8fff\] 8ccc\] 8aa\] 8ff\]	.	.	.	.	.	.	.	.	.
8r	8r	.	.	.	.	.	.	.	.	.
8r	8r	.	.	.	.	.	.	.	.	.
==	==	==	==	==	==	==	==	==	==	==
*-	*-	*-	*-	*-	*-	*-	*-	*-	*-	*-
!!!system-decoration: [(s1,s2)][(s3,s4)]
!!!RDF**kern: > = above
!!!RDF**kern: < = below
!!!ENC: Filip Voros
!!!END: 2021-11-02
!!!ENC: Leszek Kubiak
!!!END: 2021-11-08
!!!YEC: Copyright 2022 Narodowy Instytut Fryderyka Chopina (https://polishscores.org)
!!!YEM: License CC-BY-4.0 (https://creativecommons.org/licenses/by/4.0)
